!!!!SEGMENT: pl-wtm--r-1544--004_stefani-jozef--msza-no-9-credo.krn
!!!cenid: 18xx:1796
!!!COM: Stefani, Józef
!!!COM-rism: pe30024097
!!!CDT: 1800/04/16-1876/03/19
!!!CNT: Polish
!!!OTL: Msza No 9 – Credo
!!!OMD: Moderato
!!!PDT: 1846
!!!AGN: Sacred; Mass
!!!SMS-siglum: PL-Wtm
!!!SMS-shelfmark: R 1544
!!!NIFC-rismID: 1001120493
!!!URL-scan: http://repozytorium.nifc.pl/skany/pl-wtm-nut--r1544
!!!ONB-nifc: UWAGA: części Mszy: 1. Kyrie, 2. Gloria, 3. Graduale, 4. Credo, 5. Offertorium, 6. Sanctus, 7. Benedictus, 8. Agnus Dei, 9. Dona nobis
!!!SMS-variant:
!!!SMS-altvar:
**kern	**kern	**dynam	**kern	**text	**dynam	**kern	**text	**dynam	**kern	**text	**dynam	**kern	**text	**dynam	**kern	**dynam	**kern	**dynam	**kern	**dynam	**kern	**dynam	**kern	**dynam	**kern	**dynam	**kern	**dynam	**kern	**dynam	**kern	**dynam
*	*	*	*group2	*group2	*group2	*group2	*group2	*group2	*group2	*group2	*group2	*group2	*	*	*	*	*	*	*	*	*	*	*group1	*group1	*group1	*group1	*group1	*group1	*group1	*group1	*group1	*group1
*part15	*part14	*part14	*part13	*part13	*part13	*part12	*part12	*part12	*part11	*part11	*part11	*part10	*part10	*part10	*part9	*part9	*part8	*part8	*part7	*part7	*part6	*part6	*part5	*part5	*part4	*part4	*part3	*part3	*part2	*part2	*part1	*part1
*staff15	*staff14	*	*staff13	*staff13	*	*staff12	*staff12	*	*staff11	*staff11	*	*staff10	*staff10	*	*staff9	*	*staff8	*	*staff7	*	*staff6	*	*staff5	*	*staff4	*	*staff3	*	*staff2	*	*staff1	*
*I"Tympani	*I"Basſi	*	*I"Basſo	*	*	*I"Tenore	*	*	*I"Soprano 2o	*	*	*I"Soprano 1o	*	*	*I"Viole	*	*I"Violini	*	*I"Violini	*	*I"in C Trombe	*	*I"Fagotti	*	*I"in C Corni	*	*I"in C Clarinetti	*	*I"Oboe	*	*I"Flauto	*
*I'timp	*I'b	*	*I'B	*	*	*I'T	*	*	*I'S 2	*	*	*I'S 1	*	*	*I'vla	*	*I'vl 2	*	*I'vl 1	*	*I'tr in C	*	*I'fag	*	*I'cor in C	*	*I'cl in C	*	*I'ob	*	*I'fl	*
*clefF4	*clefF4	*	*clefF4	*	*	*clefC4	*	*	*clefG2	*	*	*clefG2	*	*	*clefC3	*	*clefG2	*	*clefG2	*	*clefG2	*	*clefF4	*	*clefG2	*	*clefG2	*	*clefG2	*	*clefG2	*
*	*Trd0c0	*	*	*	*	*	*	*	*	*	*	*	*	*	*	*	*	*	*	*	*	*	*	*	*Trd0c0	*	*	*	*	*	*	*
*k[]	*k[]	*	*k[]	*	*	*k[]	*	*	*k[]	*	*	*k[]	*	*	*k[]	*	*k[]	*	*k[]	*	*k[]	*	*k[]	*	*k[]	*	*k[]	*	*k[]	*	*k[]	*
*M4/4	*M4/4	*	*M4/4	*	*	*M4/4	*	*	*M4/4	*	*	*M4/4	*	*	*M4/4	*	*M4/4	*	*M4/4	*	*M4/4	*	*M4/4	*	*M4/4	*	*M4/4	*	*M4/4	*	*M4/4	*
*met(c)	*met(c)	*	*met(c)	*	*	*met(c)	*	*	*met(c)	*	*	*met(c)	*	*	*met(c)	*	*met(c)	*	*met(c)	*	*met(c)	*	*met(c)	*	*met(c)	*	*met(c)	*	*met(c)	*	*met(c)	*
*>[A,B,B,C]	*>[A,B,B,C]	*	*>[A,B,B,C]	*	*	*>[A,B,B,C]	*	*	*>[A,B,B,C]	*	*	*>[A,B,B,C]	*	*	*>[A,B,B,C]	*	*>[A,B,B,C]	*	*>[A,B,B,C]	*	*>[A,B,B,C]	*	*>[A,B,B,C]	*	*>[A,B,B,C]	*	*>[A,B,B,C]	*	*>[A,B,B,C]	*	*>[A,B,B,C]	*
*>A	*>A	*	*>A	*	*	*>A	*	*	*>A	*	*	*>A	*	*	*>A	*	*>A	*	*>A	*	*>A	*	*>A	*	*>A	*	*>A	*	*>A	*	*>A	*
*	*all\right	*	*all\right	*	*	*all\right	*	*	*all\right	*	*	*all\right	*	*	*all\right	*	*all\right	*	*all\right	*	*all\right	*	*all\right	*	*all\right	*	*all\right	*	*all\right	*	*all\right	*
4ryy	4F\	p	4r	.	.	4r	.	.	4r	.	.	4r	.	.	[4A/	.	4d#X/	.	4a/	p	4r	.	4r	.	4r	.	4r	.	4r	.	4r	.
=1	=1	=1	=1	=1	=1	=1	=1	=1	=1	=1	=1	=1	=1	=1	=1	=1	=1	=1	=1	=1	=1	=1	=1	=1	=1	=1	=1	=1	=1	=1	=1	=1
1ryy	1F	<[	1r	.	.	1r	.	.	1r	.	.	1r	.	.	(>4A/]	.	1d#X	.	[>1a	<[	1r	.	1r	.	1r	.	1r	.	1r	.	1r	.
.	.	.	.	.	.	.	.	.	.	.	.	.	.	.	4c/	.	.	.	.	.	.	.	.	.	.	.	.	.	.	.	.	.
.	.	.	.	.	.	.	.	.	.	.	.	.	.	.	4B/	.	.	.	.	.	.	.	.	.	.	.	.	.	.	.	.	.
.	.	.	.	.	.	.	.	.	.	.	.	.	.	.	4A/)	.	.	.	.	.	.	.	.	.	.	.	.	.	.	.	.	.
=2	=2	=2	=2	=2	=2	=2	=2	=2	=2	=2	=2	=2	=2	=2	=2	=2	=2	=2	=2	=2	=2	=2	=2	=2	=2	=2	=2	=2	=2	=2	=2	=2
2ryy	2.E\	>	2r	.	.	2r	.	.	2r	.	.	2r	.	.	2.B/	.	2.e/	.	2a/]	>	2r	.	2r	.	2r	.	2r	.	2r	.	2r	.
4ryy	.	]	4r	.	.	4r	.	.	4r	.	.	4r	.	.	.	.	.	.	4g#X/	]	4r	.	4r	.	4r	.	4r	.	4r	.	4r	.
=!|:	=!|:	=!|:	=!|:	=!|:	=!|:	=!|:	=!|:	=!|:	=!|:	=!|:	=!|:	=!|:	=!|:	=!|:	=!|:	=!|:	=!|:	=!|:	=!|:	=!|:	=!|:	=!|:	=!|:	=!|:	=!|:	=!|:	=!|:	=!|:	=!|:	=!|:	=!|:	=!|:
!	!	!	!	!	!	!	!	!	!	!	!	!	!	!LO:DY:a	!	!	!	!	!	!	!	!	!	!	!	!	!	!	!	!	!	!
!	!	!	!	!	!	!	!	!	!	!	!	!	!	!LO:DY:a	!	!	!	!	!	!	!	!	!	!	!	!	!	!	!	!	!	!
4ryy	4A\	.	4A\	.	.	4c\	.	.	4e/	.	.	4a/	Wie-	p < [[	[4A/	.	[4c/	.	[4a/	.	4r	.	4r	.	4r	.	4r	.	4r	.	4r	.
=3	=3	=3	=3	=3	=3	=3	=3	=3	=3	=3	=3	=3	=3	=3	=3	=3	=3	=3	=3	=3	=3	=3	=3	=3	=3	=3	=3	=3	=3	=3	=3	=3
*>B	*>B	*	*>B	*	*	*>B	*	*	*>B	*	*	*>B	*	*	*>B	*	*>B	*	*>B	*	*>B	*	*>B	*	*>B	*	*>B	*	*>B	*	*>B	*
*	*	*	*	*	*	*	*	*	*	*	*	*	*	*	*	*	*	*	*	*	*	*	*^	*	*	*	*^	*	*	*	*	*
!	!	!	!	!	!	!	!	!	!	!	!	!	!	!	!LO:TX:t=P:problem:mixed beam	!	!	!	!	!	!	!	!	!	!	!	!	!	!	!	!	!	!	!
1ryy	8AA/	fp	2A\	.	.	2c\	.	.	2e/	.	.	2a/	-rze-	.	8A/L]	.	8c/L]	f	8a/L]	f	1r	.	2c/	2A\	p	1r	.	2a/	2e\	p <	1r	.	1r	.
.	8r	.	.	.	.	.	.	.	.	.	.	.	.	.	8e\J	.	8c/J	p	8a'/J	p	.	.	.	.	.	.	.	.	.	.	.	.	.	.
.	8A\	.	.	.	.	.	.	.	.	.	.	.	.	.	8r	.	8r	.	8r	.	.	.	.	.	.	.	.	.	.	.	.	.	.	.
.	8r	.	.	.	.	.	.	.	.	.	.	.	.	.	8e\	.	8c/	.	8a/	.	.	.	.	.	.	.	.	.	.	.	.	.	.	.
.	8AA/	.	2A\	.	.	2c\	.	.	2e/	.	.	2cc\	-my	.	8r	.	8r	.	8r	.	.	.	2c/	2A\	.	.	.	2cc/	2e\	.	.	.	.	.
.	8r	.	.	.	.	.	.	.	.	.	.	.	.	.	8e\	.	8c/	.	8cc\	.	.	.	.	.	.	.	.	.	.	.	.	.	.	.
.	8A\	.	.	.	.	.	.	.	.	.	.	.	.	.	8r	.	8r	.	8r	.	.	.	.	.	.	.	.	.	.	[	.	.	.	.
.	8r	.	.	.	.	.	.	.	.	.	.	.	.	.	8e\	.	8c/	.	8cc\	.	.	.	.	.	.	.	.	.	.	.	.	.	.	.
=4	=4	=4	=4	=4	=4	=4	=4	=4	=4	=4	=4	=4	=4	=4	=4	=4	=4	=4	=4	=4	=4	=4	=4	=4	=4	=4	=4	=4	=4	=4	=4	=4	=4	=4
*	*rep	*	*	*	*	*	*	*	*	*	*	*	*	*	*	*	*	*	*	*	*	*	*	*	*	*	*	*	*	*	*	*	*	*
1ryy	8AA/	.	2A\	.	.	2d\	.	.	2f/	.	.	2b\	w Bo-	.	8r	.	8r	.	8r	.	1r	.	2d/	2A\	.	1r	.	2b/	2f\	>	1r	.	1r	.
.	8r	.	.	.	.	.	.	.	.	.	.	.	.	.	8f\	.	8d/	.	8b\	.	.	.	.	.	.	.	.	.	.	.	.	.	.	.
.	8A\	.	.	.	.	.	.	.	.	.	.	.	.	.	8r	.	8r	.	8r	.	.	.	.	.	.	.	.	.	.	]	.	.	.	.
.	8r	.	.	.	.	.	.	.	.	.	.	.	.	.	8f\	.	8d/	.	8b\	.	.	.	.	.	.	.	.	.	.	.	.	.	.	.
.	8AA/	.	4A\	.	.	4c\	.	.	4e/	.	.	4a\	-ga	.	8r	.	8r	.	8r	.	.	.	2c/	2A\	.	.	.	2a/	2e\	.	.	.	.	.
.	8r	.	.	.	.	.	.	.	.	.	.	.	.	.	8e\	.	8c/	.	8a\	.	.	.	.	.	.	.	.	.	.	.	.	.	.	.
.	8A\	.	4A\	.	.	4c\	.	.	4e/	.	.	4a\	je-	.	8r	.	8r	.	8r	.	.	.	.	.	.	.	.	.	.	.	.	.	.	.
.	8r	.	.	.	.	.	.	.	.	.	.	.	.	.	8e\	.	8c/	.	8a\	.	.	.	.	.	.	.	.	.	.	.	.	.	.	.
*	*Xrep	*	*	*	*	*	*	*	*	*	*	*	*	*	*	*	*	*	*	*	*	*	*	*	*	*	*	*	*	*	*	*	*	*
=5	=5	=5	=5	=5	=5	=5	=5	=5	=5	=5	=5	=5	=5	=5	=5	=5	=5	=5	=5	=5	=5	=5	=5	=5	=5	=5	=5	=5	=5	=5	=5	=5	=5	=5
!!LO:PB:g=original
1ryy	8E\	.	(4E\	.	.	2B\	.	.	2e/	.	.	2g#X/	-dne-	.	8r	.	8r	.	8r	.	1r	.	2B/	(>4E\	.	1r	.	2g#X/	1e	.	1r	.	1r	.
.	8r	.	.	.	.	.	.	.	.	.	.	.	.	.	8e\	.	8B/	.	8g#X/	.	.	.	.	.	.	.	.	.	.	.	.	.	.	.
*	*	*	*	*	*	*	*	*	*	*	*	*	*	*	*rep	*	*	*	*	*	*	*	*	*	*	*	*	*	*	*	*	*	*	*
.	8D\	.	4D\	.	.	.	.	.	.	.	.	.	.	.	8r	.	8r	.	8r	.	.	.	.	4D\)	.	.	.	.	.	.	.	.	.	.
.	8r	.	.	.	.	.	.	.	.	.	.	.	.	.	8e\	.	8B/	.	8g#/	.	.	.	.	.	.	.	.	.	.	.	.	.	.	.
*	*	*	*	*	*	*	*	*	*	*	*	*	*	*	*Xrep	*	*	*	*	*	*	*	*	*	*	*	*	*	*	*	*	*	*	*
*	*	*	*	*	*	*	*	*	*	*	*	*	*	*	*rep	*	*	*	*	*	*	*	*	*	*	*	*	*	*	*	*	*	*	*
.	8C/	.	4C\)	.	.	4c\	.	.	4e/	.	.	4a/	-go	.	8r	.	8r	.	8r	.	.	.	4c/	4C\	.	.	.	4a/	.	.	.	.	.	.
.	8r	.	.	.	.	.	.	.	.	.	.	.	.	.	8e\	.	8c/	.	8a/	.	.	.	.	.	.	.	.	.	.	.	.	.	.	.
*	*	*	*	*	*	*	*	*	*	*	*	*	*	*	*Xrep	*	*	*	*	*	*	*	*	*	*	*	*	*	*	*	*	*	*	*
*	*	*	*	*	*	*	*	*	*	*	*	*	*	*	*rep	*	*	*	*	*	*	*	*	*	*	*	*	*	*	*	*	*	*	*
.	8GG#X/	.	4GG#X/	.	.	4e\	.	.	4e/	.	.	4b/	na	.	8r	.	8r	.	8r	.	.	.	4e/	4GG#X\	.	.	.	4b/	.	.	.	.	.	.
.	8r	.	.	.	.	.	.	.	.	.	.	.	.	.	8e\	.	8e/	.	8b/	.	.	.	.	.	.	.	.	.	.	.	.	.	.	.
*	*	*	*	*	*	*	*	*	*	*	*	*	*	*	*Xrep	*	*	*	*	*	*	*	*	*	*	*	*	*	*	*	*	*	*	*
=6	=6	=6	=6	=6	=6	=6	=6	=6	=6	=6	=6	=6	=6	=6	=6	=6	=6	=6	=6	=6	=6	=6	=6	=6	=6	=6	=6	=6	=6	=6	=6	=6	=6	=6
1ryy	8AA/	.	(4.AA/	.	.	2e\	.	.	2a/	.	.	2cc\	wie-	.	8r	.	8r	.	8r	.	1r	.	2e/	4.AA\	.	1r	.	2cc/	2a\	.	1r	.	1r	.
.	8r	.	.	.	.	.	.	.	.	.	.	.	.	.	8e\	.	8a/	.	8cc\	.	.	.	.	.	.	.	.	.	.	.	.	.	.	.
*	*	*	*	*	*	*	*	*	*	*	*	*	*	*	*rep	*	*	*	*	*	*	*	*	*	*	*	*	*	*	*	*	*	*	*
.	8C/	.	.	.	.	.	.	.	.	.	.	.	.	.	8r	.	8r	.	8r	.	.	.	.	.	.	.	.	.	.	.	.	.	.	.
.	8r	.	8C/)	.	.	.	.	.	.	.	.	.	.	.	8e\	.	8a/	.	8cc\	.	.	.	.	8C\	.	.	.	.	.	.	.	.	.	.
*	*	*	*	*	*	*	*	*	*	*	*	*	*	*	*Xrep	*	*	*	*	*	*	*	*	*	*	*	*	*	*	*	*	*	*	*
*	*	*	*	*	*	*	*	*	*	*	*	*	*	*	*rep	*	*	*	*	*	*	*	*	*	*	*	*	*	*	*	*	*	*	*
.	8E\	.	4E\	.	.	4e\	.	.	4g#X/	.	.	4b\	-ki	.	8r	.	8r	.	8r	.	.	.	4e/	4E\	.	.	.	4b/	4g#X\	.	.	.	.	.
.	8r	.	.	.	.	.	.	.	.	.	.	.	.	.	8e\	.	8g#X/	.	8b\	.	.	.	.	.	.	.	.	.	.	.	.	.	.	.
*	*	*	*	*	*	*	*	*	*	*	*	*	*	*	*Xrep	*	*	*	*	*	*	*	*	*	*	*	*	*	*	*	*	*	*	*
*	*	*	*	*	*	*	*	*	*	*	*	*	*	*	*rep	*	*	*	*	*	*	*	*	*	*	*	*	*	*	*	*	*	*	*
.	8E\	.	4E\	.	.	4e\	.	.	4g#/	.	.	4b\	Co	.	8r	.	8r	.	8r	.	.	.	4e/	4E\	.	.	.	4b/	4g#\	.	.	.	.	.
.	8r	.	.	.	.	.	.	.	.	.	.	.	.	.	8e\	.	8g#/	.	8b\	.	.	.	.	.	.	.	.	.	.	.	.	.	.	.
*	*	*	*	*	*	*	*	*	*	*	*	*	*	*	*Xrep	*	*	*	*	*	*	*	*	*	*	*	*	*	*	*	*	*	*	*
=7	=7	=7	=7	=7	=7	=7	=7	=7	=7	=7	=7	=7	=7	=7	=7	=7	=7	=7	=7	=7	=7	=7	=7	=7	=7	=7	=7	=7	=7	=7	=7	=7	=7	=7
*	*	*	*	*	*	*	*	*	*	*	*	*	*	*	*	*	*	*	*	*	*^	*	*	*	*	*^	*	*	*	*	*	*	*	*
!	!	!	!	!	!	!	!	!	!	!	!	!	!	!	!	!	!	!	!	!	!	!	!	!	!	!	!	!	!LO:DY:rj	!	!	!	!	!LO:DY:rj	!	!LO:DY:rj
*	*	*	*	*	*	*	*	*	*	*	*	*	*	*	*rep	*	*	*	*	*	*	*	*	*	*	*	*	*	*	*	*	*	*	*	*	*
1ryy	8A\	.	2A\	.	.	2e\	.	.	2a/	.	.	2cc\	ka-	<	8r	.	8r	.	8r	.	2a/	2a\	<	2A/	2A\	<	2ee/	2ee\	p	2cc/	2a\	.	2aa\	p	2ccc\	p
.	8r	<	.	.	<	.	.	.	.	.	.	.	.	.	8e\	.	8a/	.	8cc\	.	.	.	.	.	.	.	.	.	.	.	.	<	.	<	.	.
*	*	*	*	*	*	*	*	*	*	*	*	*	*	*	*	*	*rep	*	*	*	*	*	*	*	*	*	*	*	*	*	*	*	*	*	*	*
.	8A\	.	.	.	.	.	.	.	.	.	.	.	.	.	8r	.	8r	.	8r	.	.	.	.	.	.	.	.	.	<	.	.	.	.	.	.	<
.	8r	.	.	.	.	.	.	.	.	.	.	.	.	.	8e\	.	8a/	.	8cc\	<	.	.	.	.	.	.	.	.	.	.	.	.	.	.	.	.
*	*	*	*	*	*	*	*	*	*	*	*	*	*	*	*	*	*Xrep	*	*	*	*	*	*	*	*	*	*	*	*	*	*	*	*	*	*	*
*	*	*	*	*	*	*	*	*	*	*	*	*	*	*	*	*	*rep	*	*	*	*	*	*	*	*	*	*	*	*	*	*	*	*	*	*	*
.	8G\	.	2G\	.	.	2e\	.	.	2a/	.	.	2cc#X\	-rze	.	8r	.	8r	.	8r	.	2a/	2g\	.	2A/	2G\	.	2ee/	2ee\	.	2cc#X/	2a\	.	2aa\	[[	2ccc#X\	.
.	8r	.	.	.	.	.	.	.	.	.	.	.	.	[	8e\	.	8a/	.	8cc#X\	.	.	.	.	.	.	.	.	.	.	.	.	.	.	.	.	.
*	*	*	*	*	*	*	*	*	*	*	*	*	*	*	*	*	*Xrep	*	*	*	*	*	*	*	*	*	*	*	*	*	*	*	*	*	*	*
*	*	*	*	*	*	*	*	*	*	*	*	*	*	*	*	*	*rep	*	*	*	*	*	*	*	*	*	*	*	*	*	*	*	*	*	*	*
.	8G\	.	.	.	.	.	.	.	.	.	.	.	.	.	8r	.	8r	.	8r	.	.	.	.	.	.	.	.	.	.	.	.	.	.	.	.	.
.	8r	[[	.	.	[[	.	.	.	.	.	.	.	.	.	8e\	.	8a/	.	8cc#\	[[	.	.	.	.	.	.	.	.	.	.	.	.	.	.	.	.
*	*	*	*	*	*	*	*	*	*	*	*	*	*	*	*Xrep	*	*Xrep	*	*	*	*	*	*	*	*	*	*	*	*	*	*	*	*	*	*	*
=8	=8	=8	=8	=8	=8	=8	=8	=8	=8	=8	=8	=8	=8	=8	=8	=8	=8	=8	=8	=8	=8	=8	=8	=8	=8	=8	=8	=8	=8	=8	=8	=8	=8	=8	=8	=8
*	*	*	*	*	*above	*	*	*above	*	*	*above	*	*	*above	*	*	*	*	*	*	*	*	*	*	*	*	*	*	*	*	*	*	*	*	*	*
!	!	!LO:DY:a:rj	!	!	!LO:DY:rj	!	!	!LO:DY:rj	!	!	!LO:DY:rj	!	!	!LO:DY:rj	!	!	!	!	!	!	!	!	!LO:DY:rj	!	!	!LO:DY:rj	!	!	!	!	!	!LO:DY:rj	!	!LO:DY:rj	!	!LO:DY:rj
1ryy	8F\	f	2F\	.	f	2d\	.	f	2a/	.	f	2dd\	zbro-	f	8r	.	8r	.	8r	f	2.a/	2.f\	[ f	[2A/	2F\	[ f	2.dd/	2.dd\	[	2dd/	2.a\	[ f	2.aa\	f	2ddd\	f
.	8r	.	.	.	.	.	.	.	.	.	.	.	.	.	8d\	.	8a/	.	8dd\	.	.	.	.	.	.	.	.	.	.	.	.	.	.	.	.	.
.	8F\	.	.	.	.	.	.	.	.	.	.	.	.	.	8r	.	8r	.	8r	.	.	.	.	.	.	.	.	.	.	.	.	.	.	.	.	.
.	8r	.	.	.	.	.	.	.	.	.	.	.	.	.	8d\	.	8a/	.	8dd\	.	.	.	.	.	.	.	.	.	.	.	.	.	.	.	.	.
*	*	*	*	*	*	*	*	*	*	*	*	*	*	*	*rep	*	*	*	*	*	*	*	*	*	*	*	*	*	*	*	*	*	*	*	*	*
.	8D\	.	4D\	.	.	4d\	.	.	4a/	.	.	4ff\	-dnie	.	8r	.	8r	.	8r	.	.	.	.	4A/]	4D\	.	.	.	.	4ff/	.	.	.	.	4fff\	.
.	8r	.	.	.	.	.	.	.	.	.	.	.	.	.	8d\	.	8a/	.	8ff\	.	.	.	.	.	.	.	.	.	.	.	.	.	.	.	.	.
*	*	*	*	*	*	*	*	*	*	*	*	*	*	*	*Xrep	*	*	*	*	*	*	*	*	*	*	*	*	*	*	*	*	*	*	*	*	*
*	*	*	*	*	*	*	*	*	*	*	*	*	*	*	*rep	*	*	*	*	*	*	*	*	*	*	*	*	*	*	*	*	*	*	*	*	*
!	!	!	!	!	!	!	!	!	!	!	!	!	!	!	!	!	!	!	!	!	!	!	!	!LO:TX:t=P:problem:brak poczatku łuku	!	!	!	!	!	!	!	!	!	!	!	!
.	8D\	.	4D\	.	.	4d\	.	.	4f/	.	.	4a/	a	.	8r	.	8r	.	8r	.	4r	4ryy	.	(4A/	4D\	.	4dd/	4dd\	.	4a/	4f\	.	4ff\	.	4aa\	.
.	8r	.	.	.	.	.	.	.	.	.	.	.	.	.	8d\	.	8f/	.	8a/	.	.	.	.	.	.	.	.	.	.	.	.	.	.	.	.	.
*	*	*	*	*	*	*	*	*	*	*	*	*	*	*	*Xrep	*	*	*	*	*	*	*	*	*	*	*	*	*	*	*	*	*	*	*	*	*
*	*	*	*	*	*	*	*	*	*	*	*	*	*	*	*	*	*	*	*	*	*v	*v	*	*	*	*	*	*	*	*	*	*	*	*	*	*
=9	=9	=9	=9	=9	=9	=9	=9	=9	=9	=9	=9	=9	=9	=9	=9	=9	=9	=9	=9	=9	=9	=9	=9	=9	=9	=9	=9	=9	=9	=9	=9	=9	=9	=9	=9
!!LO:PB:g=original
1ryy	8GG/	.	2G\	.	.	2e\	.	.	(4e/	.	.	(4g/	cno-	.	8r	.	8r	.	8r	.	1r	.	[2G\)	2.ryy	p	4ee/	4cc\	.	4g/	2e\	p	4ee\	p	4gg\	p
.	8r	.	.	.	.	.	.	.	.	.	.	.	.	.	8e\	.	8e/	.	8g/	.	.	.	.	.	.	.	.	.	.	.	.	.	.	.	.
.	8G\	.	.	.	.	.	.	.	4g/)	.	.	4ee\)	.	.	8r	.	8r	.	8r	.	.	.	.	.	.	4r	2ryy	.	2ee/	.	.	(4gg\	.	2eee\	.
.	8r	.	.	.	.	.	.	.	.	.	.	.	.	.	8e\	.	8g/	.	8ee\	.	.	.	.	.	.	.	.	.	.	.	.	.	.	.	.
.	8GG/	.	4GG/	.	.	4f\	.	.	4a/	.	.	4ee\	-ty	.	8r	.	8r	.	8r	.	.	.	4G\]	.	.	4r	.	.	.	2f\	.	4aa\	.	.	.
.	8r	.	.	.	.	.	.	.	.	.	.	.	.	.	8f\	.	8a/	.	8ee\	.	.	.	.	.	.	.	.	.	.	.	.	.	.	.	.
.	8G\	.	4GG/	.	.	4f\	.	.	4b/	.	.	4dd\	na-	.	8r	.	8r	.	8r	.	.	.	4G/	4GG\	.	4dd/	4g/	.	4dd/	.	.	4bb\)	.	4ddd\	.
.	8r	.	.	.	.	.	.	.	.	.	.	.	.	.	8f\	.	8b/	.	8dd\	.	.	.	.	.	.	.	.	.	.	.	.	.	.	.	.
=10	=10	=10	=10	=10	=10	=10	=10	=10	=10	=10	=10	=10	=10	=10	=10	=10	=10	=10	=10	=10	=10	=10	=10	=10	=10	=10	=10	=10	=10	=10	=10	=10	=10	=10	=10
1ryy	8C\	.	2C/	.	.	2e\	.	.	2cc\	.	.	2cc\	-gra-	.	8r	.	8r	.	8r	.	1r	.	2.G/	2.C\	.	2.cc/	2.e/	.	2.cc/	2.e\	.	2.ccc\	.	2.ccc\	.
.	8r	.	.	.	.	.	.	.	.	.	.	.	.	.	8e\	.	8cc\	.	8cc\	.	.	.	.	.	.	.	.	.	.	.	.	.	.	.	.
*	*	*	*	*	*	*	*	*	*	*	*	*	*	*	*rep	*	*	*	*rep	*	*	*	*	*	*	*	*	*	*	*	*	*	*	*	*
.	8E\	.	.	.	.	.	.	.	.	.	.	.	.	.	8r	.	8r	.	8r	.	.	.	.	.	.	.	.	.	.	.	.	.	.	.	.
.	8r	.	.	.	.	.	.	.	.	.	.	.	.	.	8e\	.	8g/	.	8cc\	.	.	.	.	.	.	.	.	.	.	.	.	.	.	.	.
*	*	*	*	*	*	*	*	*	*	*	*	*	*	*	*Xrep	*	*	*	*Xrep	*	*	*	*	*	*	*	*	*	*	*	*	*	*	*	*
*	*	*	*	*	*	*	*	*	*	*	*	*	*	*	*rep	*	*rep	*	*rep	*	*	*	*	*	*	*	*	*	*	*	*	*	*	*	*
.	8G\	.	4C/	.	.	4e\	.	.	4cc\	.	.	4cc\	-dza	.	8r	.	8r	.	8r	.	.	.	.	.	.	.	.	.	.	.	.	.	.	.	.
.	8r	.	.	.	.	.	.	.	.	.	.	.	.	.	8e\	.	8cc\	.	8cc\	.	.	.	.	.	.	.	.	.	.	.	.	.	.	.	.
*	*	*	*	*	*	*	*	*	*	*	*	*	*	*	*Xrep	*	*Xrep	*	*Xrep	*	*	*	*	*	*	*	*	*	*	*	*	*	*	*	*
*	*	*	*	*	*	*	*	*	*	*	*	*	*	*	*rep	*	*rep	*	*rep	*	*	*	*	*	*	*	*	*	*	*	*	*	*	*	*
.	8c\	.	4c\	.	.	4e\	.	.	4g/	.	.	4cc\	ſwiat	.	8r	.	8r	.	8r	.	.	.	4r	4ryy	.	4r	4ryy	.	4r	4ryy	.	4r	.	4r	.
.	8r	.	.	.	.	.	.	.	.	.	.	.	.	.	8e\	.	8g/	.	8cc\	.	.	.	.	.	.	.	.	.	.	.	.	.	.	.	.
*	*	*	*	*	*	*	*	*	*	*	*	*	*	*	*Xrep	*	*Xrep	*	*Xrep	*	*	*	*	*	*	*	*	*	*	*	*	*	*	*	*
*	*	*	*	*	*	*	*	*	*	*	*	*	*	*	*	*	*	*	*	*	*	*	*v	*v	*	*	*	*	*	*	*	*	*	*	*
=11	=11	=11	=11	=11	=11	=11	=11	=11	=11	=11	=11	=11	=11	=11	=11	=11	=11	=11	=11	=11	=11	=11	=11	=11	=11	=11	=11	=11	=11	=11	=11	=11	=11	=11
*	*	*	*	*	*	*	*	*	*	*	*	*	*	*	*	*	*	*	*	*above	*	*	*	*	*	*	*	*	*	*	*	*	*	*
1ryy	8BB/	.	2B\	.	.	2e\	.	.	2g#X/	.	.	(4.ee\	ca-	.	8r	>	8r	.	8r	>	1r	.	(2B\	.	2.ee/	2.ee\	>	(4.ee/	2g#X\	>	1r	.	(4.eee\	>
.	8r	.	.	.	.	.	.	.	.	.	.	.	.	.	8e\	.	8g#X/	.	8ee\	.	.	.	.	.	.	.	.	.	.	.	.	.	.	.
*	*	*	*	*	*	*	*	*	*	*	*	*	*	*	*rep	*	*	*	*	*	*	*	*	*	*	*	*	*	*	*	*	*	*	*
.	8B\	.	.	.	.	.	.	.	.	.	.	.	.	.	8r	]	8r	.	8r	.	.	.	.	.	.	.	]	.	.	.	.	.	.	.
.	8r	.	.	.	.	.	.	.	.	.	.	8dd\)	.	.	8e\	.	8g#/	.	8dd\	.	.	.	.	.	.	.	.	8dd/)	.	]	.	.	8ddd\)	]
*	*	*	*	*	*	*	*	*	*	*	*	*	*	*	*Xrep	*	*	*	*	*	*	*	*	*	*	*	*	*	*	*	*	*	*	*
*	*	*	*	*	*	*	*	*	*	*	*	*	*	*	*rep	*	*	*	*	*	*	*	*	*	*	*	*	*	*	*	*	*	*	*
.	8AA/	.	2A\	.	.	2e\	.	.	2a/	.	.	2cc\	-ły	.	8r	.	8r	.	8r	.	.	.	4A\)	.	.	.	.	4cc/	4a\	.	.	.	4ccc\	.
.	8r	.	.	.	.	.	.	.	.	.	.	.	.	.	8e\	.	8a/	.	8cc\	]	.	.	.	.	.	.	.	.	.	.	.	.	.	.
*	*	*	*	*	*	*	*	*	*	*	*	*	*	*	*Xrep	*	*	*	*	*	*	*	*	*	*	*	*	*	*	*	*	*	*	*
*	*	*	*	*	*	*	*	*	*	*	*	*	*	*	*rep	*	*	*	*	*	*	*	*	*	*	*	*	*	*	*	*	*	*	*
.	8A\	.	.	.	.	.	.	.	.	.	.	.	.	.	8r	.	8r	.	8r	.	.	.	4r	.	4r	4ryy	.	4r	4ryy	.	.	.	4r	.
.	8r	.	.	.	.	.	.	.	.	.	.	.	.	.	8e\	.	8a/	.	8cc\	.	.	.	.	.	.	.	.	.	.	.	.	.	.	.
*	*	*	*	*	*	*	*	*	*	*	*	*	*	*	*Xrep	*	*	*	*	*	*	*	*	*	*	*	*	*	*	*	*	*	*	*
=12	=12	=12	=12	=12	=12	=12	=12	=12	=12	=12	=12	=12	=12	=12	=12	=12	=12	=12	=12	=12	=12	=12	=12	=12	=12	=12	=12	=12	=12	=12	=12	=12	=12	=12
!	!	!	!	!	!	!	!	!	!	!	!	!	!	!	!	!	!	!	!	!LO:DY:a	!	!	!	!	!	!	!	!	!	!LO:HP:a	!	!	!	!
*	*	*	*	*	*	*	*	*	*	*	*	*	*	*	*rep	*	*	*	*	*	*	*	*	*	*	*	*	*	*	*	*	*	*	*
1ryy	8GG#X/	.	2G#X\	.	.	2e\	.	.	2b/	.	.	(4.ee\	z Je-	.	8r	>	8r	.	8r	>	1r	.	(2G#X\	.	2.ee/	2.ee\	>	(4.ee/	2b\	>	1r	.	(4.eee\	>
.	8r	.	.	.	.	.	.	.	.	.	.	.	.	.	8e\	.	8b/	.	8ee\	.	.	.	.	.	.	.	.	.	.	.	.	.	.	.
.	8G#X\	.	.	.	.	.	.	.	.	.	.	.	.	.	8r	.	8r	.	8r	.	.	.	.	.	.	.	]	.	.	]	.	.	.	]
.	8r	.	.	.	.	.	.	.	.	.	.	8dd\)	.	.	8e\	]	8b/	.	8dd\	.	.	.	.	.	.	.	.	8dd/)	.	.	.	.	8ddd\)	.
.	8AA/	.	4A\	.	.	4e\	.	.	4a/	.	.	4cc\	-go	.	8r	.	8r	.	8r	]	.	.	4A\)	.	.	.	.	4cc/	4a\	.	.	.	4ccc\	.
.	8r	.	.	.	.	.	.	.	.	.	.	.	.	.	8e\	.	8a/	.	8cc\	.	.	.	.	.	.	.	.	.	.	.	.	.	.	.
.	8A\	.	4A\	.	.	4e\	.	.	4a/	.	.	4cc\	i-	.	8r	.	8r	.	8r	.	.	.	4r	.	4r	4ryy	.	4r	4ryy	.	.	.	4r	.
.	8r	.	.	.	.	.	.	.	.	.	.	.	.	.	8e\	.	8a/	.	8cc\	.	.	.	.	.	.	.	.	.	.	.	.	.	.	.
*	*	*	*	*	*	*	*	*	*	*	*	*	*	*	*	*	*	*	*	*	*	*	*	*	*v	*v	*	*	*	*	*	*	*	*
*	*	*	*	*	*	*	*	*	*	*	*	*	*	*	*	*	*	*	*	*	*	*	*	*	*	*	*v	*v	*	*	*	*	*
*	*	*	*	*	*	*	*	*	*	*	*	*	*	*	*Xrep	*	*	*	*	*	*	*	*	*	*	*	*	*	*	*	*	*
=13	=13	=13	=13	=13	=13	=13	=13	=13	=13	=13	=13	=13	=13	=13	=13	=13	=13	=13	=13	=13	=13	=13	=13	=13	=13	=13	=13	=13	=13	=13	=13	=13
!!LO:PB:g=original
*	*	*	*	*	*	*	*	*	*	*	*	*	*	*	*	*	*	*	*	*	*	*	*	*	*	*	*^	*	*	*	*	*
1ryy	8D\	.	2D\	.	.	2d\	.	.	2f/	.	.	2b\	-stnie-	.	8r	.	8r	.	8r	.	1r	.	(2d 2D\	p	1r	.	2.b/	2f\	p	1r	.	1r	.
.	8r	.	.	.	.	.	.	.	.	.	.	.	.	.	8d\	.	8f/	.	8b\	.	.	.	.	.	.	.	.	.	.	.	.	.	.
*	*rep	*	*	*	*	*	*	*	*	*	*	*	*	*	*rep	*	*rep	*	*rep	*	*	*	*	*	*	*	*	*	*	*	*	*	*
.	8D\	.	.	.	.	.	.	.	.	.	.	.	.	.	8r	.	8r	.	8r	.	.	.	.	<	.	.	.	.	<	.	.	.	.
.	8r	.	.	.	.	.	.	.	.	.	.	.	.	.	8d\	.	8f/	.	8b\	.	.	.	.	.	.	.	.	.	.	.	.	.	.
*	*Xrep	*	*	*	*	*	*	*	*	*	*	*	*	*	*Xrep	*	*Xrep	*	*Xrep	*	*	*	*	*	*	*	*	*	*	*	*	*	*
*	*	*	*	*	*	*	*	*	*	*	*	*	*	*	*	*	*	*	*rep	*	*	*	*	*	*	*	*	*	*	*	*	*	*
.	8D#X\	.	4D#X\	.	.	4B\	.	.	4f#X/	.	.	4b\	-ie	.	8r	.	8r	.	8r	.	.	.	2B 2D#X\)	.	.	.	.	2f#X\	.	.	.	.	.
.	8r	.	.	.	.	.	.	.	.	.	.	.	.	.	8B/	.	8f#X/	.	8b\	.	.	.	.	.	.	.	.	.	.	.	.	.	.
*	*	*	*	*	*	*	*	*	*	*	*	*	*	*	*	*	*	*	*Xrep	*	*	*	*	*	*	*	*	*	*	*	*	*	*
*	*rep	*	*	*	*	*	*	*	*	*	*	*	*	*	*rep	*	*rep	*	*	*	*	*	*	*	*	*	*	*	*	*	*	*	*
.	8D#\	.	4D#\	.	.	4B\	.	.	4f#/	.	.	4a/	o-	.	8r	.	8r	.	8r	.	.	.	.	[	.	.	4a/	.	[	.	.	.	.
.	8r	.	.	.	.	.	.	.	.	.	.	.	.	.	8B/	.	8f#/	.	8a\	.	.	.	.	.	.	.	.	.	.	.	.	.	.
*	*Xrep	*	*	*	*	*	*	*	*	*	*	*	*	*	*Xrep	*	*Xrep	*	*	*	*	*	*	*	*	*	*	*	*	*	*	*	*
=14	=14	=14	=14	=14	=14	=14	=14	=14	=14	=14	=14	=14	=14	=14	=14	=14	=14	=14	=14	=14	=14	=14	=14	=14	=14	=14	=14	=14	=14	=14	=14	=14	=14
1ryy	8E\	.	2E\	.	.	2B\	.	.	(4.e/	.	.	(4.g#X/	-pie-	.	8r	.	8r	.	8r	.	1r	.	[2B [>2E\	>	1r	.	2g#X/	2e\	>	1r	.	1r	.
.	8r	.	.	.	.	.	.	.	.	.	.	.	.	.	8B/	.	8e/	.	8g#X/	.	.	.	.	.	.	.	.	.	.	.	.	.	.
*	*	*	*	*	*	*	*	*	*	*	*	*	*	*	*rep	*	*rep	*	*rep	*	*	*	*	*	*	*	*	*	*	*	*	*	*
.	8E\	.	.	.	.	.	.	.	.	.	.	.	.	.	8r	.	8r	.	8r	.	.	.	.	]	.	.	.	.	.	.	.	.	.
.	8r	.	.	.	.	.	.	.	8g#X/)	.	.	8b/)	.	.	8B/	.	8e/	.	8g#/	.	.	.	.	.	.	.	.	.	]	.	.	.	.
*	*	*	*	*	*	*	*	*	*	*	*	*	*	*	*Xrep	*	*Xrep	*	*Xrep	*	*	*	*	*	*	*	*	*	*	*	*	*	*
*	*	*	*	*	*	*	*	*	*	*	*	*	*	*	*rep	*	*	*	*	*	*	*	*	*	*	*	*	*	*	*	*	*	*
.	8E\	.	4E\	.	.	4B\	.	.	4g#/	.	.	4b/	-ki	.	8r	.	8r	.	8r	.	.	.	4B] 4E\]	.	.	.	4b/	4g#X\	.	.	.	.	.
.	8r	.	.	.	.	.	.	.	.	.	.	.	.	.	8B/	.	8g#X/	.	8b/	.	.	.	.	.	.	.	.	.	.	.	.	.	.
*	*	*	*	*	*	*	*	*	*	*	*	*	*	*	*Xrep	*	*rep	*	*rep	*	*	*	*	*	*	*	*	*	*	*	*	*	*
.	8Dn\	.	4Dn\	.	.	4e\	.	.	4g#/	.	.	4b/	W mi-	.	8r	.	8r	.	8r	.	.	.	4r	.	.	.	4r	4ryy	.	.	.	.	.
.	8r	.	.	.	.	.	.	.	.	.	.	.	.	.	8e\	.	8g#/	.	8b/	.	.	.	.	.	.	.	.	.	.	.	.	.	.
*	*	*	*	*	*	*	*	*	*	*	*	*	*	*	*	*	*Xrep	*	*Xrep	*	*	*	*	*	*	*	*	*	*	*	*	*	*
=15	=15	=15	=15	=15	=15	=15	=15	=15	=15	=15	=15	=15	=15	=15	=15	=15	=15	=15	=15	=15	=15	=15	=15	=15	=15	=15	=15	=15	=15	=15	=15	=15	=15
*	*	*	*	*	*	*	*	*	*	*	*	*	*	*	*	*	*	*	*	*	*	*	*	*	*^	*	*	*	*	*	*	*	*
!	!	!	!	!	!	!	!	!	!	!	!	!	!	!	!	!	!	!	!	!	!	!	!	!LO:DY:rj	!	!	!LO:DY:rj	!	!	!	!	!LO:DY:rj	!	!LO:DY:rj
1ryy	8r	.	2C/	.	.	2e\	.	.	2a/	.	.	2ee\	-łoś-	.	8r	.	8r	.	8r	.	2a 2c/	.	2A 2C^<\	f	2ee^</	2cc\	f	2ee^</	2a\	.	2aa^<\	f	2eee^<\	f
.	8C/	.	.	.	.	.	.	.	.	.	.	.	.	.	8e\	.	8a/	.	8ee\	.	.	.	.	.	.	.	.	.	.	.	.	.	.	.
*	*rep	*	*	*	*	*	*	*	*	*	*	*	*	*	*rep	*	*rep	*	*rep	*	*	*	*	*	*	*	*	*	*	*	*	*	*	*
.	8r	.	.	.	.	.	.	.	.	.	.	.	.	.	8r	.	8r	.	8r	.	.	.	.	.	.	.	.	.	.	.	.	.	.	.
.	8C/	.	.	.	.	.	.	.	.	.	.	.	.	.	8e\	.	8a/	.	8ee\	.	.	.	.	.	.	.	.	.	.	.	.	.	.	.
*	*Xrep	*	*	*	*	*	*	*	*	*	*	*	*	*	*Xrep	*	*Xrep	*	*Xrep	*	*	*	*	*	*	*	*	*	*	*	*	*	*	*
*	*rep	*	*	*	*	*	*	*	*	*	*	*	*	*	*rep	*	*rep	*	*	*	*	*	*	*	*	*	*	*	*	*	*	*	*	*
.	8r	.	2C/	.	.	2e\	.	.	2a/	.	.	2a/	-ci	.	8r	.	8r	.	8r	.	2e 2c/	.	2c 2C^<\	.	2ee^</	2cc\	.	2a^</	2a\	.	2aa^<\	.	2aa^<\	.
.	8C/	.	.	.	.	.	.	.	.	.	.	.	.	.	8e\	.	8a/	.	8a/	.	.	.	.	.	.	.	.	.	.	.	.	.	.	.
*	*Xrep	*	*	*	*	*	*	*	*	*	*	*	*	*	*Xrep	*	*Xrep	*	*rep	*	*	*	*	*	*	*	*	*	*	*	*	*	*	*
*	*rep	*	*	*	*	*	*	*	*	*	*	*	*	*	*rep	*	*rep	*	*	*	*	*	*	*	*	*	*	*	*	*	*	*	*	*
.	8r	.	.	.	.	.	.	.	.	.	.	.	.	.	8r	.	8r	.	8r	.	.	.	.	.	.	.	.	.	.	.	.	.	.	.
.	8C/	.	.	.	.	.	.	.	.	.	.	.	.	.	8e\	.	8a/	.	8a/	.	.	.	.	.	.	.	.	.	.	.	.	.	.	.
*	*Xrep	*	*	*	*	*	*	*	*	*	*	*	*	*	*Xrep	*	*Xrep	*	*Xrep	*	*	*	*	*	*	*	*	*	*	*	*	*	*	*
=16	=16	=16	=16	=16	=16	=16	=16	=16	=16	=16	=16	=16	=16	=16	=16	=16	=16	=16	=16	=16	=16	=16	=16	=16	=16	=16	=16	=16	=16	=16	=16	=16	=16	=16
1ryy	8r	.	2D\	.	.	2d\	.	.	2a/	.	.	2ff\	Je-	.	8r	.	8r	.	8r	.	2f 2d/	.	2d 2D^<\	.	2.dd/	2.dd\	.	2ff^</	2a\	.	2aa^<\	.	2fff^<\	.
.	8D\	.	.	.	.	.	.	.	.	.	.	.	.	.	8d\	.	8a/	.	8ff\	.	.	.	.	.	.	.	.	.	.	.	.	.	.	.
*	*rep	*	*	*	*	*	*	*	*	*	*	*	*	*	*rep	*	*rep	*	*	*	*	*	*	*	*	*	*	*	*	*	*	*	*	*
.	8r	.	.	.	.	.	.	.	.	.	.	.	.	.	8r	.	8r	.	8r	.	.	.	.	.	.	.	.	.	.	.	.	.	.	.
.	8D\	.	.	.	.	.	.	.	.	.	.	.	.	.	8d\	.	8a/	.	8ff\	.	.	.	.	.	.	.	.	.	.	.	.	.	.	.
*	*Xrep	*	*	*	*	*	*	*	*	*	*	*	*	*	*Xrep	*	*Xrep	*	*	*	*	*	*	*	*	*	*	*	*	*	*	*	*	*
*	*rep	*	*	*	*	*	*	*	*	*	*	*	*	*	*rep	*	*	*	*	*	*	*	*	*	*	*	*	*	*	*	*	*	*	*
!	!	!	!	!	!	!	!	!	!	!	!	!	!	!	!	!	!	!	!	!	!	!	!	!LO:DY:rj	!	!	!	!	!	!	!	!	!	!
.	8r	.	4D\	.	.	4d\	.	.	4f/	.	.	4a/	-go	.	8r	.	8r	.	8r	.	4f 4d/	.	2d 2D\	fp	.	.	.	4a/	2f\	fp	4ff\	.	4aa\	.
.	8D\	.	.	.	.	.	.	.	.	.	.	.	.	.	8d\	.	8f/	.	8a/	.	.	.	.	.	.	.	.	.	.	.	.	.	.	.
*	*Xrep	*	*	*	*	*	*	*	*	*	*	*	*	*	*Xrep	*	*	*	*	*	*	*	*	*	*	*	*	*	*	*	*	*	*	*
*	*rep	*	*	*	*	*	*	*	*	*	*	*	*	*	*	*	*	*	*	*	*	*	*	*	*	*	*	*	*	*	*	*	*	*
.	8r	.	4D\	.	.	4f\	.	.	4f/	.	.	4b/	i	.	8r	.	8r	.	8r	.	4r	.	.	.	4dd/	4dd\	.	4b/	.	.	4r	.	4r	.
.	8D\	.	.	.	.	.	.	.	.	.	.	.	.	.	8d\	.	8f/	.	8b/	.	.	.	.	.	.	.	.	.	.	.	.	.	.	.
*	*Xrep	*	*	*	*	*	*	*	*	*	*	*	*	*	*	*	*	*	*	*	*	*	*	*	*	*	*	*	*	*	*	*	*	*
*	*	*	*	*	*	*	*	*	*	*	*	*	*	*	*	*	*	*	*	*	*	*	*	*	*v	*v	*	*	*	*	*	*	*	*
=17	=17	=17	=17	=17	=17	=17	=17	=17	=17	=17	=17	=17	=17	=17	=17	=17	=17	=17	=17	=17	=17	=17	=17	=17	=17	=17	=17	=17	=17	=17	=17	=17	=17
!!LO:PB:g=original
*	*	*	*	*	*	*	*	*	*	*	*	*	*	*	*	*	*	*	*	*	*	*	*^	*	*	*	*	*	*	*	*	*	*
1ryy	8E\	.	2E\	mą-	.	2e\	.	.	2a/	.	.	2cc\	.	.	8r	.	8r	.	8r	.	1r	.	[2e/	[>2E\	.	1r	.	2cc/	[2a\	.	1r	.	1r	.
.	8r	.	.	.	.	.	.	.	.	.	.	.	.	.	8e\	.	8a/	.	8cc\	.	.	.	.	.	.	.	.	.	.	.	.	.	.	.
*	*rep	*	*	*	*	*	*	*	*	*	*	*	*	*	*	*	*	*	*	*	*	*	*	*	*	*	*	*	*	*	*	*	*	*
.	8E\	.	.	.	.	.	.	.	.	.	.	.	.	.	8r	.	8r	.	8r	.	.	.	.	.	.	.	.	.	.	.	.	.	.	.
.	8r	.	.	.	.	.	.	.	.	.	.	.	.	.	8e\	.	8a/	.	8cc\	.	.	.	.	.	.	.	.	.	.	.	.	.	.	.
*	*Xrep	*	*	*	*	*	*	*	*	*	*	*	*	*	*	*	*	*	*	*	*	*	*	*	*	*	*	*	*	*	*	*	*	*
*	*rep	*	*	*	*	*	*	*	*	*	*	*	*	*	*	*	*	*	*	*	*	*	*	*	*	*	*	*	*	*	*	*	*	*
.	8E\	.	4.E\	-drość	.	4.e\	.	.	4.a/	.	.	4.b\	.	.	8r	.	8r	.	8r	.	.	.	4.e/])	4.E\]	.	.	.	2b/	4.a\]	.	.	.	.	.
.	8r	.	.	.	.	.	.	.	.	.	.	.	.	.	8e\	.	8a/	.	8b\	.	.	.	.	.	.	.	.	.	.	.	.	.	.	.
*	*Xrep	*	*	*	*	*	*	*	*	*	*	*	*	*	*	*	*	*	*	*	*	*	*	*	*	*	*	*	*	*	*	*	*	*
*	*rep	*	*	*	*	*	*	*	*	*	*	*	*	*	*	*	*	*	*	*	*	*	*	*	*	*	*	*	*	*	*	*	*	*
.	8E\	.	.	.	.	.	.	.	.	.	.	.	.	.	8r	.	8r	.	8r	.	.	.	.	.	.	.	.	.	.	.	.	.	.	.
.	8r	.	8E\	i	.	8d\	.	.	8g#X/	.	.	8b\	.	.	8d\	.	8g#X/	.	8b\	.	.	.	8d/	8E\	.	.	.	.	8g#X\	.	.	.	.	.
*	*Xrep	*	*	*	*	*	*	*	*	*	*	*	*	*	*	*	*	*	*	*	*	*	*	*	*	*	*	*	*	*	*	*	*	*
=18	=18	=18	=18	=18	=18	=18	=18	=18	=18	=18	=18	=18	=18	=18	=18	=18	=18	=18	=18	=18	=18	=18	=18	=18	=18	=18	=18	=18	=18	=18	=18	=18	=18	=18
1ryy	8AA/	.	2A\	wła-	.	2c\	.	.	2a/	.	.	2a/	.	.	8r	.	8r	.	8r	.	2r	.	2.c/	2.A\	.	2r	.	2.a/	2.a\	.	2r	.	1r	.
.	8r	.	.	.	.	.	.	.	.	.	.	.	.	.	8c\	.	8a/	.	8a/	.	.	.	.	.	.	.	.	.	.	.	.	.	.	.
.	8C\L	.	.	.	.	.	.	.	.	.	.	.	.	.	8r	.	8r	.	8r	.	.	.	.	.	.	.	.	.	.	.	.	.	.	.
.	8E\J	.	.	.	.	.	.	.	.	.	.	.	.	.	8e\	.	8c/	.	8a/	.	.	.	.	.	.	.	.	.	.	.	.	.	.	.
.	8A\	.	4A\	-dza	.	4c\	.	.	4a/	.	.	4a/	.	.	8r	.	8r	.	8r	.	4r	.	.	.	.	4r	.	.	.	.	4r	.	.	.
.	8r	.	.	.	.	.	.	.	.	.	.	.	.	.	8e\	.	8c/	.	8a/	.	.	.	.	.	.	.	.	.	.	.	.	.	.	.
!	!	!LO:DY:rj	!LO:TX:a:t=Solo	!	!	!	!	!	!	!	!	!	!	!	!	!	!	!	!	!	!	!	!	!	!	!	!	!	!	!	!	!	!	!
.	4GG^/	f	4Gn\	Że	.	4r	.	.	4r	.	.	4r	.	.	8r	.	8r	.	8r	.	4g 4G^>/	.	4d\ 4GG^<	4ryy	.	4dd 4g^/	.	4b^</	4f\	.	4b^<\	.	.	.
.	.	.	.	.	.	.	.	.	.	.	.	.	.	.	8f^\	.	8d^/	.	8b^/	.	.	.	.	.	.	.	.	.	.	.	.	.	.	.
=19||	=19||	=19||	=19||	=19||	=19||	=19||	=19||	=19||	=19||	=19||	=19||	=19||	=19||	=19||	=19||	=19||	=19||	=19||	=19||	=19||	=19||	=19||	=19||	=19||	=19||	=19||	=19||	=19||	=19||	=19||	=19||	=19||	=19||	=19||
!	!	!	!	!	!	!	!	!	!	!	!	!	!	!	!	!	!	!	!	!	!	!LO:DY:a	!	!	!	!	!LO:DY:a	!	!	!	!	!	!	!
1ryy	4C/	p	2G\	nie-	.	1r	.	.	1r	.	.	1r	.	.	8r	.	8r	.	8r	.	4g 4c/	p	4c\	4C\	.	4cc 4e/	p	4cc/	4e/	.	4cc\	p	1r	.
.	.	.	.	.	.	.	.	.	.	.	.	.	.	.	8GL 8C/	p	8c/L	p	8eL 8G/	p	.	.	.	.	.	.	.	.	.	.	.	.	.	.
.	4r	.	.	.	.	.	.	.	.	.	.	.	.	.	8G 8C/	.	8c/	.	8e 8G/	.	4r	.	4r	4ryy	.	4r	.	4r	4ryy	.	4r	.	.	.
.	.	.	.	.	.	.	.	.	.	.	.	.	.	.	8GJ 8C/	.	8c/J	.	8eJ 8G/	.	.	.	.	.	.	.	.	.	.	.	.	.	.	.
*	*	*	*	*	*	*	*	*	*	*	*	*	*	*	*	*	*	*	*	*	*	*	*v	*v	*	*	*	*v	*v	*	*	*	*	*
*	*	*	*	*	*	*	*	*	*	*	*	*	*	*	*tremolo	*	*tremolo	*	*tremolo	*	*	*	*	*	*	*	*	*	*	*	*	*
*	*	*	*	*	*	*	*	*	*	*	*	*	*	*	*	*	*	*	*	*	*	*	*^	*	*	*	*^	*	*	*	*	*
.	2r	.	2E\	-śmier-	.	.	.	.	.	.	.	.	.	.	8GL 8C/	.	8c/L	.	8eL 8G/	.	2r	.	2r	2ryy	.	2r	.	2r	2ryy	.	2r	.	.	.
.	.	.	.	.	.	.	.	.	.	.	.	.	.	.	8G 8C/	.	8c/	.	8e 8G/	.	.	.	.	.	.	.	.	.	.	.	.	.	.	.
.	.	.	.	.	.	.	.	.	.	.	.	.	.	.	8G 8C/	.	8c/	.	8e 8G/	.	.	.	.	.	.	.	.	.	.	.	.	.	.	.
.	.	.	.	.	.	.	.	.	.	.	.	.	.	.	8GJ 8C/	.	8c/J	.	8eJ 8G/	.	.	.	.	.	.	.	.	.	.	.	.	.	.	.
*	*	*	*	*	*	*	*	*	*	*	*	*	*	*	*	*	*	*	*	*	*	*	*v	*v	*	*	*	*v	*v	*	*	*	*	*
*	*	*	*	*	*	*	*	*	*	*	*	*	*	*	*Xtremolo	*	*Xtremolo	*	*Xtremolo	*	*	*	*	*	*	*	*	*	*	*	*	*
=20	=20	=20	=20	=20	=20	=20	=20	=20	=20	=20	=20	=20	=20	=20	=20	=20	=20	=20	=20	=20	=20	=20	=20	=20	=20	=20	=20	=20	=20	=20	=20	=20
*	*	*	*	*	*	*	*	*	*	*	*	*	*	*	*rep	*	*rep	*	*rep	*	*	*	*	*	*	*	*	*	*	*	*	*
1ryy	4C/	.	2c\	-tel-	.	1r	.	.	1r	.	.	1r	.	.	8r	.	8r	.	8r	.	1r	.	1r	.	1r	.	1r	.	1r	.	1r	.
.	.	.	.	.	.	.	.	.	.	.	.	.	.	.	8GL 8C/	.	8c/L	.	8eL 8G/	.	.	.	.	.	.	.	.	.	.	.	.	.
.	4r	.	.	.	.	.	.	.	.	.	.	.	.	.	8G 8C/	.	8c/	.	8e 8G/	.	.	.	.	.	.	.	.	.	.	.	.	.
.	.	.	.	.	.	.	.	.	.	.	.	.	.	.	8GJ 8C/	.	8c/J	.	8eJ 8G/	.	.	.	.	.	.	.	.	.	.	.	.	.
*	*	*	*	*	*	*	*	*	*	*	*	*	*	*	*tremolo	*	*tremolo	*	*tremolo	*	*	*	*	*	*	*	*	*	*	*	*	*
.	2r	.	4G\	-ność	.	.	.	.	.	.	.	.	.	.	8GL 8C/	.	8c/L	.	8eL 8G/	.	.	.	.	.	.	.	.	.	.	.	.	.
.	.	.	.	.	.	.	.	.	.	.	.	.	.	.	8G 8C/	.	8c/	.	8e 8G/	.	.	.	.	.	.	.	.	.	.	.	.	.
.	.	.	4G\	u	.	.	.	.	.	.	.	.	.	.	8G 8C/	.	8c/	.	8e 8G/	.	.	.	.	.	.	.	.	.	.	.	.	.
.	.	.	.	.	.	.	.	.	.	.	.	.	.	.	8GJ 8C/	.	8c/J	.	8eJ 8G/	.	.	.	.	.	.	.	.	.	.	.	.	.
*	*	*	*	*	*	*	*	*	*	*	*	*	*	*	*Xtremolo	*	*Xtremolo	*	*Xtremolo	*	*	*	*	*	*	*	*	*	*	*	*	*
*	*	*	*	*	*	*	*	*	*	*	*	*	*	*	*Xrep	*	*Xrep	*	*Xrep	*	*	*	*	*	*	*	*	*	*	*	*	*
=21	=21	=21	=21	=21	=21	=21	=21	=21	=21	=21	=21	=21	=21	=21	=21	=21	=21	=21	=21	=21	=21	=21	=21	=21	=21	=21	=21	=21	=21	=21	=21	=21
*	*	*	*	*	*	*	*	*	*	*	*	*	*	*	*	*	*	*	*	*	*	*	*	*	*	*	*^	*	*	*	*	*
!	!	!	!	!	!	!	!	!	!	!	!	!	!	!	!	!	!	!	!	!	!	!	!	!	!	!	!	!	!LO:DY:rj	!	!	!	!
1ryy	4C/	.	2F\	Bo-	.	1r	.	.	1r	.	.	1r	.	.	8r	.	8r	.	8r	.	1r	.	1r	.	1r	.	1cc	1cc	pp	4r	.	4r	.
.	.	.	.	.	.	.	.	.	.	.	.	.	.	.	8AL 8C/	.	8c/L	.	8fL 8A/	.	.	.	.	.	.	.	.	.	.	.	pp	.	pp
.	4r	.	.	.	.	.	.	.	.	.	.	.	.	.	8A 8C/	.	8c/	.	8f 8A/	.	.	.	.	.	.	.	.	.	.	(4ff\	.	(4aa\	.
.	.	.	.	.	.	.	.	.	.	.	.	.	.	.	8AJ 8C/	.	8c/J	.	8fJ 8A/	.	.	.	.	.	.	.	.	.	.	.	.	.	.
*	*	*	*	*	*	*	*	*	*	*	*	*	*	*	*rep	*	*rep	*	*rep	*	*	*	*	*	*	*	*	*	*	*	*	*	*
.	4C/	.	(16G\LL	-ga	.	.	.	.	.	.	.	.	.	.	8r	.	8r	.	8r	.	.	.	.	.	.	.	.	.	.	4aa\	.	4ccc\	.
.	.	.	16F\	.	.	.	.	.	.	.	.	.	.	.	.	.	.	.	.	.	.	.	.	.	.	.	.	.	.	.	.	.	.
.	.	.	16E\	.	.	.	.	.	.	.	.	.	.	.	8AL 8C/	.	8c/L	.	8fL 8A/	.	.	.	.	.	.	.	.	.	.	.	.	.	.
.	.	.	16F\JJ)	.	.	.	.	.	.	.	.	.	.	.	.	.	.	.	.	.	.	.	.	.	.	.	.	.	.	.	.	.	.
.	4r	.	(8.G\L	nas	.	.	.	.	.	.	.	.	.	.	8A 8C/	.	8c/	.	8f 8A/	.	.	.	.	.	.	.	.	.	.	4ff\)	.	4aa\)	.
.	.	.	.	.	.	.	.	.	.	.	.	.	.	.	8AJ 8C/	.	8c/J	.	8fJ 8A/	.	.	.	.	.	.	.	.	.	.	.	.	.	.
.	.	.	16A\Jk)	.	.	.	.	.	.	.	.	.	.	.	.	.	.	.	.	.	.	.	.	.	.	.	.	.	.	.	.	.	.
*	*	*	*	*	*	*	*	*	*	*	*	*	*	*	*Xrep	*	*Xrep	*	*Xrep	*	*	*	*	*	*	*	*	*	*	*	*	*	*
=22	=22	=22	=22	=22	=22	=22	=22	=22	=22	=22	=22	=22	=22	=22	=22	=22	=22	=22	=22	=22	=22	=22	=22	=22	=22	=22	=22	=22	=22	=22	=22	=22	=22
1ryy	4C^/	.	(4.F#X\	cze-	.	1r	.	.	1r	.	.	1r	.	.	8r	.	8r	.	8r	.	1r	.	1r	.	1r	.	[2cc^</	[2cc\	.	(4.dd#X^<\	.	(4.ff#X^<\	.
!	!	!	!	!	!	!	!	!	!	!	!	!	!	!	!	!	!	!	!	!	!	!	!	!	!	!	!	!	!	!	!	!	!
.	.	.	.	.	.	.	.	.	.	.	.	.	.	.	8F#X^>/L|	.	8c/L	.	8d#X|>L 8A^>/	.	.	.	.	.	.	.	.	.	.	.	.	.	.
.	4r	.	.	.	.	.	.	.	.	.	.	.	.	.	(8F#/	.	8c/	.	(>8d# 8A/	.	.	.	.	.	.	.	.	.	.	.	.	.	.
.	.	.	8G\)	.	.	.	.	.	.	.	.	.	.	.	8G/J)	.	8c/J	.	8eJ 8G/)	.	.	.	.	.	.	.	.	.	.	8ee\)	.	8gg\)	.
*	*	*	*	*	*	*	*	*	*	*	*	*	*	*	*	*	*rep	*	*	*	*	*	*	*	*	*	*	*	*	*	*	*	*
.	4C/	.	4G\	-ka	.	.	.	.	.	.	.	.	.	.	8r	.	8r	.	8r	.	.	.	.	.	.	.	4cc/]	4cc\]	.	4ee\	.	4gg\	.
*	*	*	*	*	*	*	*	*	*	*	*	*	*	*	*tremolo	*	*	*	*tremolo	*	*	*	*	*	*	*	*	*	*	*	*	*	*
!	!	!	!	!	!	!	!	!	!	!	!	!	!	!	!	!	!	!	!LO:TX:t=P:problem:nad nutą 3 kropki artykulacyjne	!	!	!	!	!	!	!	!	!	!	!	!	!	!
.	.	.	.	.	.	.	.	.	.	.	.	.	.	.	8GL 8C/	.	8c/L	.	8eL 8G'/	.	.	.	.	.	.	.	.	.	.	.	.	.	.
.	4r	.	4G\	dla	.	.	.	.	.	.	.	.	.	.	8G 8C/	.	8c/	.	8e 8G'/	.	.	.	.	.	.	.	4r	4ryy	.	4r	.	4r	.
.	.	.	.	.	.	.	.	.	.	.	.	.	.	.	8GJ 8C/	.	8c/J	.	8eJ 8G'/	.	.	.	.	.	.	.	.	.	.	.	.	.	.
*	*	*	*	*	*	*	*	*	*	*	*	*	*	*	*	*	*	*	*	*	*	*	*	*	*	*	*v	*v	*	*	*	*	*
*	*	*	*	*	*	*	*	*	*	*	*	*	*	*	*Xtremolo	*	*Xrep	*	*Xtremolo	*	*	*	*	*	*	*	*	*	*	*	*	*
=23	=23	=23	=23	=23	=23	=23	=23	=23	=23	=23	=23	=23	=23	=23	=23	=23	=23	=23	=23	=23	=23	=23	=23	=23	=23	=23	=23	=23	=23	=23	=23	=23
!!LO:PB:g=original
1ryy	4BB/	.	(4.Fn\	któ-	.	1ryy	.	.	1ryy	.	.	1ryy	.	.	8r	.	8r	.	8r	.	1ryy	.	1r	.	1r	.	1r	.	1r	.	1r	.
.	.	.	.	.	.	.	.	.	.	.	.	.	.	.	8G/L	.	8d/L	.	8fL 8G/	.	.	.	.	.	.	.	.	.	.	.	.	.
.	4r	.	.	.	.	.	.	.	.	.	.	.	.	.	8G/	.	8d/	.	8f 8G/	.	.	.	.	.	.	.	.	.	.	.	.	.
.	.	.	8d\)	.	.	.	.	.	.	.	.	.	.	.	8G/J	.	8d/J	.	8fJ 8G/	.	.	.	.	.	.	.	.	.	.	.	.	.
*	*	*	*	*	*	*	*	*	*	*	*	*	*	*	*rep	*	*rep	*	*rep	*	*	*	*	*	*	*	*	*	*	*	*	*
.	4BB/	.	(4.d\	-rej	.	.	.	.	.	.	.	.	.	.	8r	.	8r	.	8ryy	.	.	.	.	.	.	.	.	.	.	.	.	.
.	.	.	.	.	.	.	.	.	.	.	.	.	.	.	8G/L	.	8d/L	.	8fL 8G/	.	.	.	.	.	.	.	.	.	.	.	.	.
.	4r	.	.	.	.	.	.	.	.	.	.	.	.	.	8G/	.	8d/	.	8f 8G/	.	.	.	.	.	.	.	.	.	.	.	.	.
.	.	.	8F\)	.	.	.	.	.	.	.	.	.	.	.	8G/J	.	8d/J	.	8fJ 8G/	.	.	.	.	.	.	.	.	.	.	.	.	.
*	*	*	*	*	*	*	*	*	*	*	*	*	*	*	*Xrep	*	*Xrep	*	*Xrep	*	*	*	*	*	*	*	*	*	*	*	*	*
=24	=24	=24	=24	=24	=24	=24	=24	=24	=24	=24	=24	=24	=24	=24	=24	=24	=24	=24	=24	=24	=24	=24	=24	=24	=24	=24	=24	=24	=24	=24	=24	=24
1ryy	4C/	.	(4.E\	czy-	.	1ryy	.	.	1ryy	.	.	1ryy	.	.	8r	.	8r	.	8r	.	1ryy	.	1r	.	1r	.	1r	.	1r	.	1r	.
*	*	*	*	*	*	*	*	*	*	*	*	*	*	*	*	*	*tremolo	*	*tremolo	*	*	*	*	*	*	*	*	*	*	*	*	*
.	.	.	.	.	.	.	.	.	.	.	.	.	.	.	8G/L	.	8c/L	.	8fL 8G/	.	.	.	.	.	.	.	.	.	.	.	.	.
.	4r	.	.	.	.	.	.	.	.	.	.	.	.	.	8G/	.	8c/	.	8f 8G/	.	.	.	.	.	.	.	.	.	.	.	.	.
.	.	.	8c\)	.	.	.	.	.	.	.	.	.	.	.	8G/J	.	8c/J	.	8fJ 8G/	.	.	.	.	.	.	.	.	.	.	.	.	.
.	4C/	.	4.c\	-mem	.	.	.	.	.	.	.	.	.	.	8r	.	8r	.	8r	.	.	.	.	.	.	.	.	.	.	.	.	.
.	.	.	.	.	.	.	.	.	.	.	.	.	.	.	8G'/L	.	8c/L	.	8e/L	.	.	.	.	.	.	.	.	.	.	.	.	.
.	4r	.	.	.	.	.	.	.	.	.	.	.	.	.	(8G#X/	.	8c/	.	8e/	.	.	.	.	.	.	.	.	.	.	.	.	.
.	.	.	8A\	na	.	.	.	.	.	.	.	.	.	.	8A/J)	.	8c/J	.	8e/J	.	.	.	.	.	.	.	.	.	.	.	.	.
=25	=25	=25	=25	=25	=25	=25	=25	=25	=25	=25	=25	=25	=25	=25	=25	=25	=25	=25	=25	=25	=25	=25	=25	=25	=25	=25	=25	=25	=25	=25	=25	=25
*	*	*	*	*	*	*	*	*	*	*	*	*	*	*	*	*	*	*	*	*	*	*	*^	*	*^	*	*^	*	*	*	*	*
!	!	!	!	!	!	!	!	!	!	!	!	!	!	!	!	!	!	!	!	!	!	!	!	!	!LO:DY:rj	!	!	!LO:DY:rj	!	!	!LO:DY:rj	!	!	!	!
1ryy	4D\	.	(4.B\	zie-	.	1ryy	.	.	1ryy	.	.	1ryy	.	.	8r	.	8r	.	8r	.	1ryy	.	(2d/	2d\	p	[1dd	1dd	p	(2b/	2g\	p	1r	.	1r	.
*	*	*	*	*	*	*	*	*	*	*	*	*	*	*	*tremolo	*	*	*	*	*	*	*	*	*	*	*	*	*	*	*	*	*	*	*	*
.	.	.	.	.	.	.	.	.	.	.	.	.	.	.	8G/L	.	8B/L	.	8d/L	.	.	.	.	.	.	.	.	.	.	.	.	.	.	.	.
.	4r	.	.	.	.	.	.	.	.	.	.	.	.	.	8G/	.	8B/	.	8d/	.	.	.	.	.	.	.	.	.	.	.	.	.	.	.	.
.	.	.	16A\LL	.	.	.	.	.	.	.	.	.	.	.	8G/J	.	8B/J	.	8d/J	.	.	.	.	.	.	.	.	.	.	.	.	.	.	.	.
.	.	.	16B\JJ)	.	.	.	.	.	.	.	.	.	.	.	.	.	.	.	.	.	.	.	.	.	.	.	.	.	.	.	.	.	.	.	.
*	*	*	*	*	*	*	*	*	*	*	*	*	*	*	*	*	*	*	*	*	*	*	*v	*v	*	*	*	*	*v	*v	*	*	*	*	*
*	*	*	*	*	*	*	*	*	*	*	*	*	*	*	*	*	*	*	*	*	*	*	*^	*	*	*	*	*^	*	*	*	*	*
.	.	.	(8qd/	.	.	.	.	.	.	.	.	.	.	.	.	.	.	.	.	.	.	.	.	.	.	.	.	.	.	.	.	.	.	.	.
.	4D\	.	4.c\)	-mi	.	.	.	.	.	.	.	.	.	.	8r	.	8r	.	8r	.	.	.	2c/)	2D\	.	.	.	.	2a/	2f#X/	.	.	.	.	.
.	.	.	.	.	.	.	.	.	.	.	.	.	.	.	8dL 8A/	.	8c/L	.	8f#X/L	.	.	.	.	.	.	.	.	.	.	.	.	.	.	.	.
.	4r	.	.	.	.	.	.	.	.	.	.	.	.	.	8d 8A/	.	8c/	.	8f#/	.	.	.	.	.	.	.	.	.	.	.	.	.	.	.	.
.	.	.	8A\	o-	.	.	.	.	.	.	.	.	.	.	8dJ 8A/	.	8c/J	.	8f#/J	.	.	.	.	.	.	.	.	.	.	.	.	.	.	.	.
*	*	*	*	*	*	*	*	*	*	*	*	*	*	*	*	*	*	*	*	*	*	*	*v	*v	*	*	*	*	*v	*v	*	*	*	*	*
*	*	*	*	*	*	*	*	*	*	*	*	*	*	*	*	*	*	*	*	*	*	*	*	*	*v	*v	*	*	*	*	*	*	*
=26	=26	=26	=26	=26	=26	=26	=26	=26	=26	=26	=26	=26	=26	=26	=26	=26	=26	=26	=26	=26	=26	=26	=26	=26	=26	=26	=26	=26	=26	=26	=26	=26
*	*	*	*	*	*	*	*	*	*	*	*	*	*	*	*	*	*	*	*	*	*	*	*^	*	*^	*	*^	*	*	*	*	*
1ryy	4GG/	.	(8G\L	-fia-	.	2r	.	.	1r	.	.	1r	.	.	8r	.	8r	.	8r	.	1ryy	.	2.B/	2.G\	.	2.dd/]	2.g\	.	2.g/)	2.g\	.	1r	.	1r	.
.	.	.	16F#X\L	.	.	.	.	.	.	.	.	.	.	.	8dL 8G\	.	8B/L	.	8g/L	.	.	.	.	.	.	.	.	.	.	.	.	.	.	.	.
.	.	.	16G\JJ	.	.	.	.	.	.	.	.	.	.	.	.	.	.	.	.	.	.	.	.	.	.	.	.	.	.	.	.	.	.	.	.
.	.	.	(8qB/	.	.	.	.	.	.	.	.	.	.	.	.	.	.	.	.	.	.	.	.	.	.	.	.	.	.	.	.	.	.	.	.
.	4r	.	8.A\L)	.	.	.	.	.	.	.	.	.	.	.	8d 8G\	.	8B/	.	8g/	.	.	.	.	.	.	.	.	.	.	.	.	.	.	.	.
.	.	.	.	.	.	.	.	.	.	.	.	.	.	.	8dJ 8G\	.	8B/J	.	8g/J	.	.	.	.	.	.	.	.	.	.	.	.	.	.	.	.
.	.	.	16G\Jk)	.	.	.	.	.	.	.	.	.	.	.	.	.	.	.	.	.	.	.	.	.	.	.	.	.	.	.	.	.	.	.	.
.	4G\	.	4G\	-ry	.	4r	.	.	.	.	.	.	.	.	8r	.	8r	.	8r	.	.	.	.	.	.	.	.	.	.	.	.	.	.	.	.
.	.	.	.	.	.	.	.	.	.	.	.	.	.	.	8dL 8G\	.	8B/L	.	8g/L	.	.	.	.	.	.	.	.	.	.	.	.	.	.	.	.
.	4r	.	4r	.	.	4G/	Że	.	.	.	.	.	.	.	8d 8G\	.	8B/	.	8g/	.	.	.	4r	4ryy	.	4r	4ryy	.	4r	4ryy	.	.	.	.	.
.	.	.	.	.	.	.	.	.	.	.	.	.	.	.	8dJ 8G\	.	8B/J	.	8g/J	.	.	.	.	.	.	.	.	.	.	.	.	.	.	.	.
*	*	*	*	*	*	*	*	*	*	*	*	*	*	*	*	*	*	*	*	*	*	*	*v	*v	*	*	*	*	*v	*v	*	*	*	*	*
*	*	*	*	*	*	*	*	*	*	*	*	*	*	*	*	*	*	*	*	*	*	*	*	*	*v	*v	*	*	*	*	*	*	*
*	*	*	*	*	*	*	*	*	*	*	*	*	*	*	*Xtremolo	*	*Xtremolo	*	*Xtremolo	*	*	*	*	*	*	*	*	*	*	*	*	*
=27	=27	=27	=27	=27	=27	=27	=27	=27	=27	=27	=27	=27	=27	=27	=27	=27	=27	=27	=27	=27	=27	=27	=27	=27	=27	=27	=27	=27	=27	=27	=27	=27
1ryy	4GG/	.	1r	.	.	2d\	Sy-	.	1r	.	.	1r	.	.	8r	.	8r	.	8r	.	1r	.	1r	.	1r	.	1r	.	1r	.	1r	.
.	.	.	.	.	.	.	.	.	.	.	.	.	.	.	8dL 8G\	.	8B/L	.	8fnL 8G/	.	.	.	.	.	.	.	.	.	.	.	.	.
.	4r	.	.	.	.	.	.	.	.	.	.	.	.	.	8d 8G\	.	8B/	.	8f 8G/	.	.	.	.	.	.	.	.	.	.	.	.	.
.	.	.	.	.	.	.	.	.	.	.	.	.	.	.	8dJ 8G\	.	8B/J	.	8fJ 8G/	.	.	.	.	.	.	.	.	.	.	.	.	.
*	*	*	*	*	*	*	*	*	*	*	*	*	*	*	*tremolo	*	*tremolo	*	*tremolo	*	*	*	*	*	*	*	*	*	*	*	*	*
.	2r	.	.	.	.	2G/	-na	.	.	.	.	.	.	.	8dL 8G\	.	8B/L	.	8fL 8G/	.	.	.	.	.	.	.	.	.	.	.	.	.
.	.	.	.	.	.	.	.	.	.	.	.	.	.	.	8d 8G\	.	8B/	.	8f 8G/	.	.	.	.	.	.	.	.	.	.	.	.	.
.	.	.	.	.	.	.	.	.	.	.	.	.	.	.	8d 8G\	.	8B/	.	8f 8G/	.	.	.	.	.	.	.	.	.	.	.	.	.
.	.	.	.	.	.	.	.	.	.	.	.	.	.	.	8dJ 8G\	.	8B/J	.	8fJ 8G/	.	.	.	.	.	.	.	.	.	.	.	.	.
*	*	*	*	*	*	*	*	*	*	*	*	*	*	*	*Xtremolo	*	*Xtremolo	*	*Xtremolo	*	*	*	*	*	*	*	*	*	*	*	*	*
=28	=28	=28	=28	=28	=28	=28	=28	=28	=28	=28	=28	=28	=28	=28	=28	=28	=28	=28	=28	=28	=28	=28	=28	=28	=28	=28	=28	=28	=28	=28	=28	=28
!!LO:PB:g=original
1ryy	4GG/	.	1r	.	.	(4.f\	swe-	.	1r	.	.	1r	.	.	8r	.	8r	.	8r	.	1r	.	1r	.	1r	.	1r	.	1r	.	1r	.
.	.	.	.	.	.	.	.	.	.	.	.	.	.	.	8dL 8G\	.	8B/L	.	8fL 8G/	.	.	.	.	.	.	.	.	.	.	.	.	.
.	4r	.	.	.	.	.	.	.	.	.	.	.	.	.	8d 8G\	.	8B/	.	8f 8G/	.	.	.	.	.	.	.	.	.	.	.	.	.
.	.	.	.	.	.	16g\LL	.	.	.	.	.	.	.	.	8dJ 8G\	.	8B/J	.	8fJ 8G/	.	.	.	.	.	.	.	.	.	.	.	.	.
.	.	.	.	.	.	16f\JJ)	.	.	.	.	.	.	.	.	.	.	.	.	.	.	.	.	.	.	.	.	.	.	.	.	.	.
*	*	*	*	*	*	*	*	*	*	*	*	*	*	*	*tremolo	*	*tremolo	*	*tremolo	*	*	*	*	*	*	*	*	*	*	*	*	*
.	2r	.	.	.	.	4e\	go	.	.	.	.	.	.	.	8dL 8G\	.	8B/L	.	8fL 8G/	.	.	.	.	.	.	.	.	.	.	.	.	.
.	.	.	.	.	.	.	.	.	.	.	.	.	.	.	8d 8G\	.	8B/	.	8f 8G/	.	.	.	.	.	.	.	.	.	.	.	.	.
.	.	.	.	.	.	4d\	chciał	.	.	.	.	.	.	.	8d 8G\	.	8B/	.	8f 8G/	.	.	.	.	.	.	.	.	.	.	.	.	.
.	.	.	.	.	.	.	.	.	.	.	.	.	.	.	8dJ 8G\	.	8B/J	.	8fJ 8G/	.	.	.	.	.	.	.	.	.	.	.	.	.
*	*	*	*	*	*	*	*	*	*	*	*	*	*	*	*Xtremolo	*	*Xtremolo	*	*Xtremolo	*	*	*	*	*	*	*	*	*	*	*	*	*
=29	=29	=29	=29	=29	=29	=29	=29	=29	=29	=29	=29	=29	=29	=29	=29	=29	=29	=29	=29	=29	=29	=29	=29	=29	=29	=29	=29	=29	=29	=29	=29	=29
*	*	*	*	*	*	*	*	*	*	*	*	*	*	*	*	*	*	*	*	*	*^	*	*	*	*^	*	*	*	*	*	*	*
!	!	!	!	!	!	!	!	!	!	!	!	!	!	!	!	!	!	!	!	!	!	!	!LO:DY:rj	!	!LO:DY:rj	!	!	!	!	!	!	!	!	!
1ryy	4C/	.	1r	.	.	2e\	w cie-	.	1r	.	.	1r	.	.	8r	.	8r	.	8r	.	(2ee/	2cc\	p	(2c 2C\	p	(2ee/	2cc\	.	1r	.	1r	.	1r	.
.	.	.	.	.	.	.	.	.	.	.	.	.	.	.	8c\L	.	8c/L	.	8eL 8G/	.	.	.	.	.	.	.	.	.	.	.	.	.	.	.
.	4r	.	.	.	.	.	.	.	.	.	.	.	.	.	8c\	.	8c/	.	8e 8G/	.	.	.	.	.	.	.	.	.	.	.	.	.	.	.
.	.	.	.	.	.	.	.	.	.	.	.	.	.	.	8c\J	.	8c/J	.	8eJ 8G/	.	.	.	.	.	.	.	.	.	.	.	.	.	.	.
.	8GG/	.	.	.	.	4d\	-lić	.	.	.	.	.	.	.	8r	.	8r	.	8r	.	4dd/	4g/	.	4B 4BB\	.	4dd/	4g/	.	.	.	.	.	.	.
.	8r	.	.	.	.	.	.	.	.	.	.	.	.	.	8G/	.	8B/	.	8d 8G/	.	.	.	.	.	.	.	.	.	.	.	.	.	.	.
.	8AA^/	.	.	.	.	4c\	w czło-	.	.	.	.	.	.	.	8r	.	8r	.	8r	.	4cc/)	4e/	.	4A 4AA\)	.	4cc/)	4e/	.	.	.	.	.	.	.
.	8r	.	.	.	.	.	.	.	.	.	.	.	.	.	8E^/	.	8A^/	.	8c^/	.	.	.	.	.	.	.	.	.	.	.	.	.	.	.
*	*	*	*	*	*	*	*	*	*	*	*	*	*	*	*	*	*	*	*	*	*v	*v	*	*	*	*v	*v	*	*	*	*	*	*	*
=30	=30	=30	=30	=30	=30	=30	=30	=30	=30	=30	=30	=30	=30	=30	=30	=30	=30	=30	=30	=30	=30	=30	=30	=30	=30	=30	=30	=30	=30	=30	=30	=30
1ryy	4GG/	.	1r	.	.	2d^\	-wie-	.	1r	.	.	1r	.	.	8r	.	8r	.	8r	.	2.dd 2.g/	.	2.G 2.GG\	.	2.dd 2.g/	.	1r	.	1r	.	1r	.
.	.	.	.	.	.	.	.	.	.	.	.	.	.	.	8G/L	.	8B/L	.	8d/L	.	.	.	.	.	.	.	.	.	.	.	.	.
.	4r	.	.	.	.	.	.	.	.	.	.	.	.	.	8G/	.	8B/	.	8d/	.	.	.	.	.	.	.	.	.	.	.	.	.
.	.	.	.	.	.	.	.	.	.	.	.	.	.	.	8G/J	.	8B/J	.	8d/J	.	.	.	.	.	.	.	.	.	.	.	.	.
*	*	*	*	*	*	*	*	*	*	*	*	*	*	*	*tremolo	*	*tremolo	*	*tremolo	*	*	*	*	*	*	*	*	*	*	*	*	*
.	2r	.	.	.	.	4d\	-ka	.	.	.	.	.	.	.	8G/L	.	8B/L	.	8d/L	.	.	.	.	.	.	.	.	.	.	.	.	.
.	.	.	.	.	.	.	.	.	.	.	.	.	.	.	8G/	.	8B/	.	8d/	.	.	.	.	.	.	.	.	.	.	.	.	.
.	.	.	.	.	.	4d\	co	.	.	.	.	.	.	.	8G/	.	8B/	.	8d/	.	4r	.	4r	.	4r	.	.	.	.	.	.	.
.	.	.	.	.	.	.	.	.	.	.	.	.	.	.	8G/J	.	8B/J	.	8d/J	.	.	.	.	.	.	.	.	.	.	.	.	.
*	*	*	*	*	*	*	*	*	*	*	*	*	*	*	*Xtremolo	*	*Xtremolo	*	*Xtremolo	*	*	*	*	*	*	*	*	*	*	*	*	*
=31	=31	=31	=31	=31	=31	=31	=31	=31	=31	=31	=31	=31	=31	=31	=31	=31	=31	=31	=31	=31	=31	=31	=31	=31	=31	=31	=31	=31	=31	=31	=31	=31
1ryy	4GG#X/	.	1r	.	.	2e^\	nas	.	1r	.	.	1r	.	.	8r	.	8r	.	8r	.	1r	.	1r	.	1r	.	1r	.	1r	.	1r	.
.	.	.	.	.	.	.	.	.	.	.	.	.	.	.	8E/L	.	8B^/L	.	8e^/L	.	.	.	.	.	.	.	.	.	.	.	.	.
.	4r	.	.	.	.	.	.	.	.	.	.	.	.	.	8E/	.	8B/	.	8e/	.	.	.	.	.	.	.	.	.	.	.	.	.
.	.	.	.	.	.	.	.	.	.	.	.	.	.	.	8E/J	.	8B/J	.	8e/J	.	.	.	.	.	.	.	.	.	.	.	.	.
.	4GG#/	.	.	.	.	2d^\	na-	.	.	.	.	.	.	.	8r	.	8r	.	8r	.	.	.	.	.	.	.	.	.	.	.	.	.
*	*	*	*	*	*	*	*	*	*	*	*	*	*	*	*tremolo	*	*tremolo	*	*tremolo	*	*	*	*	*	*	*	*	*	*	*	*	*
.	.	.	.	.	.	.	.	.	.	.	.	.	.	.	8E/L	.	8B/L	.	8d/L	.	.	.	.	.	.	.	.	.	.	.	.	.
.	4r	.	.	.	.	.	.	.	.	.	.	.	.	.	8E/	.	8B/	.	8d/	.	.	.	.	.	.	.	.	.	.	.	.	.
.	.	.	.	.	.	.	.	.	.	.	.	.	.	.	8E/J	.	8B/J	.	8d/J	.	.	.	.	.	.	.	.	.	.	.	.	.
=32	=32	=32	=32	=32	=32	=32	=32	=32	=32	=32	=32	=32	=32	=32	=32	=32	=32	=32	=32	=32	=32	=32	=32	=32	=32	=32	=32	=32	=32	=32	=32	=32
1ryy	4AA/	.	1r	.	.	(4.c\	-u-	.	1r	.	.	1r	.	.	8r	.	8r	.	8r	.	1r	.	1r	.	1r	.	1r	.	1r	.	1r	.
.	.	.	.	.	.	.	.	.	.	.	.	.	.	.	8E/L	.	8A/L	.	8c/L	.	.	.	.	.	.	.	.	.	.	.	.	.
.	4r	.	.	.	.	.	.	.	.	.	.	.	.	.	8E/	.	8A/	.	8c/	.	.	.	.	.	.	.	.	.	.	.	.	.
.	.	.	.	.	.	16d\LL	.	.	.	.	.	.	.	.	8E/J	.	8A/J	.	8c/J	.	.	.	.	.	.	.	.	.	.	.	.	.
.	.	.	.	.	.	16c\JJ)	.	.	.	.	.	.	.	.	.	.	.	.	.	.	.	.	.	.	.	.	.	.	.	.	.	.
.	4AA/	.	.	.	.	4B\	-czył	.	.	.	.	.	.	.	8r	.	8r	.	8r	.	.	.	.	.	.	.	.	.	.	.	.	.
.	.	.	.	.	.	.	.	.	.	.	.	.	.	.	8E/L	.	8A/L	.	8c/L	.	.	.	.	.	.	.	.	.	.	.	.	.
.	4r	.	.	.	.	4A\	mi-	.	.	.	.	.	.	.	8E/	.	8A/	.	8c/	.	.	.	.	.	.	.	.	.	.	.	.	.
.	.	.	.	.	.	.	.	.	.	.	.	.	.	.	8E/J	.	8A/J	.	8c/J	.	.	.	.	.	.	.	.	.	.	.	.	.
=33	=33	=33	=33	=33	=33	=33	=33	=33	=33	=33	=33	=33	=33	=33	=33	=33	=33	=33	=33	=33	=33	=33	=33	=33	=33	=33	=33	=33	=33	=33	=33	=33
1ryy	4FF/	.	1r	.	.	2d\	-łoś-	.	1r	.	.	1r	.	.	8r	.	8r	.	8r	.	1r	.	1r	.	1r	.	1r	.	1r	.	1r	.
.	.	.	.	.	.	.	.	.	.	.	.	.	.	.	8F/L	.	8A/L	.	8d/L	.	.	.	.	.	.	.	.	.	.	.	.	.
.	4r	.	.	.	.	.	.	.	.	.	.	.	.	.	8F/	.	8A/	.	8d/	.	.	.	.	.	.	.	.	.	.	.	.	.
.	.	.	.	.	.	.	.	.	.	.	.	.	.	.	8F/J	.	8A/J	.	8d/J	.	.	.	.	.	.	.	.	.	.	.	.	.
.	4F\	.	.	.	.	4c\	-ci	.	.	.	.	.	.	.	8r	.	8r	.	8r	.	.	.	.	.	.	.	.	.	.	.	.	.
.	.	.	.	.	.	.	.	.	.	.	.	.	.	.	8F/L	.	8A/L	.	8d/L	.	.	.	.	.	.	.	.	.	.	.	.	.
.	4r	.	.	.	.	4d\	i	.	.	.	.	.	.	.	8F/	.	8A/	.	8d/	.	.	.	.	.	.	.	.	.	.	.	.	.
.	.	.	.	.	.	.	.	.	.	.	.	.	.	.	8F/J	.	8A/J	.	8d/J	.	.	.	.	.	.	.	.	.	.	.	.	.
=34	=34	=34	=34	=34	=34	=34	=34	=34	=34	=34	=34	=34	=34	=34	=34	=34	=34	=34	=34	=34	=34	=34	=34	=34	=34	=34	=34	=34	=34	=34	=34	=34
1ryy	4E\	.	1r	.	.	2e\	wia-	.	2r	.	.	1r	.	.	8r	.	8r	.	8r	.	1r	.	1r	.	1r	.	1r	.	1r	.	1r	.
.	.	.	.	.	.	.	.	.	.	.	.	.	.	.	8BL 8E/	.	8G#X/L	.	8e/L	.	.	.	.	.	.	.	.	.	.	.	.	.
.	4r	.	.	.	.	.	.	.	.	.	.	.	.	.	8B 8E/	.	8G#/	.	8e/	.	.	.	.	.	.	.	.	.	.	.	.	.
.	.	.	.	.	.	.	.	.	.	.	.	.	.	.	8BJ 8E/	.	8G#/J	.	8e/J	.	.	.	.	.	.	.	.	.	.	.	.	.
.	4E\	.	.	.	.	4e\	-ry	.	4r	.	.	.	.	.	8r	.	8r	.	8r	.	.	.	.	.	.	.	.	.	.	.	.	.
.	.	.	.	.	.	.	.	.	.	.	.	.	.	.	8BL 8E/	.	8G#/L	.	8e/L	.	.	.	.	.	.	.	.	.	.	.	.	.
.	4r	.	.	.	.	4r	.	.	4e/	Ten	.	.	.	.	8B 8E/	.	8G#/	.	8e/	.	.	.	.	.	.	.	.	.	.	.	.	.
.	.	.	.	.	.	.	.	.	.	.	.	.	.	.	8BJ 8E/	.	8G#/J	.	8e/J	.	.	.	.	.	.	.	.	.	.	.	.	.
=35	=35	=35	=35	=35	=35	=35	=35	=35	=35	=35	=35	=35	=35	=35	=35	=35	=35	=35	=35	=35	=35	=35	=35	=35	=35	=35	=35	=35	=35	=35	=35	=35
!!LO:PB:g=original
1ryy	8D\	.	1r	.	.	1r	.	.	2f/	śmier-	.	1r	.	.	8r	.	8r	.	8r	.	1ryy	.	1ryy	.	1ryy	.	1ryy	.	1ryy	.	1ryy	.
.	8r	.	.	.	.	.	.	.	.	.	.	.	.	.	8A/	.	8d/	.	8f/	.	.	.	.	.	.	.	.	.	.	.	.	.
.	8C\	.	.	.	.	.	.	.	.	.	.	.	.	.	8r	.	8r	.	8r	.	.	.	.	.	.	.	.	.	.	.	.	.
.	8r	.	.	.	.	.	.	.	.	.	.	.	.	.	8A-X/	.	8d/	.	8f/	.	.	.	.	.	.	.	.	.	.	.	.	.
.	8BB^>/	sfz	.	.	.	.	.	.	(4g/	-cią	.	.	.	.	8r	.	8r	.	8r	.	.	.	.	.	.	.	.	.	.	.	.	.
.	8r	.	.	.	.	.	.	.	.	.	.	.	.	.	8G^>/	.	8d^>/	.	8g^>/	sfz	.	.	.	.	.	.	.	.	.	.	.	.
.	8BB/	.	.	.	.	.	.	.	4f/)	.	.	.	.	.	8r	.	8r	.	8r	.	.	.	.	.	.	.	.	.	.	.	.	.
.	8r	.	.	.	.	.	.	.	.	.	.	.	.	.	8G/	.	8d/	.	8f/	.	.	.	.	.	.	.	.	.	.	.	.	.
=36	=36	=36	=36	=36	=36	=36	=36	=36	=36	=36	=36	=36	=36	=36	=36	=36	=36	=36	=36	=36	=36	=36	=36	=36	=36	=36	=36	=36	=36	=36	=36	=36
1ryy	8C/	.	1r	.	.	1r	.	.	2e/	swo-	.	1r	.	.	8r	.	8r	.	8r	.	1ryy	.	1ryy	.	1ryy	.	1ryy	.	1ryy	.	1ryy	.
.	8r	.	.	.	.	.	.	.	.	.	.	.	.	.	8G/	.	8c/	.	8e/	.	.	.	.	.	.	.	.	.	.	.	.	.
.	8BB/	.	.	.	.	.	.	.	.	.	.	.	.	.	8r	.	8r	.	8r	.	.	.	.	.	.	.	.	.	.	.	.	.
.	8r	.	.	.	.	.	.	.	.	.	.	.	.	.	8G/	.	8c/	.	8e/	.	.	.	.	.	.	.	.	.	.	.	.	.
.	8AA^>/	sfz	.	.	.	.	.	.	4f/	-ią	.	.	.	.	8r	.	8r	.	8r	.	.	.	.	.	.	.	.	.	.	.	.	.
.	8r	.	.	.	.	.	.	.	.	.	.	.	.	.	8F^>/	.	8c^>/	.	8f^>/	sfz	.	.	.	.	.	.	.	.	.	.	.	.
.	8AA/	.	.	.	.	.	.	.	4e/	ród	.	.	.	.	8r	.	8r	.	8r	.	.	.	.	.	.	.	.	.	.	.	.	.
.	8r	.	.	.	.	.	.	.	.	.	.	.	.	.	8F/	.	8c/	.	8e/	.	.	.	.	.	.	.	.	.	.	.	.	.
=37	=37	=37	=37	=37	=37	=37	=37	=37	=37	=37	=37	=37	=37	=37	=37	=37	=37	=37	=37	=37	=37	=37	=37	=37	=37	=37	=37	=37	=37	=37	=37	=37
1ryy	8BB/	.	1r	.	.	1r	.	.	2d/	ludz-	.	1r	.	.	8r	.	8r	.	8r	.	1ryy	.	1ryy	.	1ryy	.	1ryy	.	1ryy	.	1ryy	.
.	8r	.	.	.	.	.	.	.	.	.	.	.	.	.	8F/	.	8B/	.	8d/	.	.	.	.	.	.	.	.	.	.	.	.	.
.	8AA/	.	.	.	.	.	.	.	.	.	.	.	.	.	8r	.	8r	.	8r	.	.	.	.	.	.	.	.	.	.	.	.	.
.	8r	.	.	.	.	.	.	.	.	.	.	.	.	.	8F/	.	8B/	.	8d/	.	.	.	.	.	.	.	.	.	.	.	.	.
.	8GG#X^>/	sfz	.	.	.	.	.	.	4e/	-ki	.	.	.	.	8r	.	8r	.	8r	.	.	.	.	.	.	.	.	.	.	.	.	.
.	8r	.	.	.	.	.	.	.	.	.	.	.	.	.	8E/	.	8B^>/	.	8e^>/	sfz	.	.	.	.	.	.	.	.	.	.	.	.
.	8GG#/	.	.	.	.	.	.	.	4d/	wy-	.	.	.	.	8r	.	8r	.	8r	.	.	.	.	.	.	.	.	.	.	.	.	.
.	8r	.	.	.	.	.	.	.	.	.	.	.	.	.	8E/	.	8B/	.	8d/	.	.	.	.	.	.	.	.	.	.	.	.	.
=38	=38	=38	=38	=38	=38	=38	=38	=38	=38	=38	=38	=38	=38	=38	=38	=38	=38	=38	=38	=38	=38	=38	=38	=38	=38	=38	=38	=38	=38	=38	=38	=38
1ryy	8AA/	.	1r	.	.	1r	.	.	2c/	-ba-	.	1r	.	.	8r	.	8r	.	8r	.	1ryy	.	1ryy	.	1ryy	.	1ryy	.	1ryy	.	1ryy	.
.	8r	.	.	.	.	.	.	.	.	.	.	.	.	.	8E/	.	8A/	.	8c/	.	.	.	.	.	.	.	.	.	.	.	.	.
*	*	*	*	*	*	*	*	*	*	*	*	*	*	*	*rep	*	*	*	*	*	*	*	*	*	*	*	*	*	*	*	*	*
.	8AA/	.	.	.	.	.	.	.	.	.	.	.	.	.	8r	.	8r	.	8r	.	.	.	.	.	.	.	.	.	.	.	.	.
.	8r	.	.	.	.	.	.	.	.	.	.	.	.	.	8E/	.	8A/	.	8c/	.	.	.	.	.	.	.	.	.	.	.	.	.
*	*	*	*	*	*	*	*	*	*	*	*	*	*	*	*Xrep	*	*	*	*	*	*	*	*	*	*	*	*	*	*	*	*	*
*	*	*	*	*	*	*	*	*	*	*	*	*	*	*	*rep	*	*	*	*	*	*	*	*	*	*	*	*	*	*	*	*	*
.	8GG/	.	.	.	.	.	.	.	4c#X/	-wił	.	.	.	.	8r	.	8r	.	8r	.	.	.	.	.	.	.	.	.	.	.	.	.
.	8r	.	.	.	.	.	.	.	.	.	.	.	.	.	8E/	.	8A/	.	8c#X/	.	.	.	.	.	.	.	.	.	.	.	.	.
*	*	*	*	*	*	*	*	*	*	*	*	*	*	*	*Xrep	*	*	*	*	*	*	*	*	*	*	*	*	*	*	*	*	*
*	*	*	*	*	*	*	*	*	*	*	*	*	*	*	*rep	*	*	*	*	*	*	*	*	*	*	*	*	*	*	*	*	*
.	8GG/	.	.	.	.	.	.	.	4c#/	I	.	.	.	.	8r	.	8r	.	8r	.	.	.	.	.	.	.	.	.	.	.	.	.
.	8r	.	.	.	.	.	.	.	.	.	.	.	.	.	8E/	.	8A/	.	8c#/	.	.	.	.	.	.	.	.	.	.	.	.	.
*	*	*	*	*	*	*	*	*	*	*	*	*	*	*	*Xrep	*	*	*	*	*	*	*	*	*	*	*	*	*	*	*	*	*
=39	=39	=39	=39	=39	=39	=39	=39	=39	=39	=39	=39	=39	=39	=39	=39	=39	=39	=39	=39	=39	=39	=39	=39	=39	=39	=39	=39	=39	=39	=39	=39	=39
1ryy	8FF/	.	1r	.	.	1r	.	.	2d/	krwią	.	1ryy	.	.	8r	.	8r	.	8r	.	1ryy	.	1ryy	.	1ryy	.	1ryy	.	1ryy	.	1ryy	.
.	8r	.	.	.	.	.	.	.	.	.	.	.	.	.	8F/	.	8A/	.	8d/	.	.	.	.	.	.	.	.	.	.	.	.	.
.	8F\	.	.	.	.	.	.	.	.	.	.	.	.	.	8r	.	8r	.	8r	.	.	.	.	.	.	.	.	.	.	.	.	.
.	8r	.	.	.	.	.	.	.	.	.	.	.	.	.	8F/	.	8A/	.	8d/	.	.	.	.	.	.	.	.	.	.	.	.	.
.	8D\	.	.	.	.	.	.	.	2a/	do	.	.	.	.	8r	.	8r	.	8r	.	.	.	.	.	.	.	.	.	.	.	.	.
.	8r	.	.	.	.	.	.	.	.	.	.	.	.	.	8d\	.	8f/	.	8a/	.	.	.	.	.	.	.	.	.	.	.	.	.
.	8D\	.	.	.	.	.	.	.	.	.	.	.	.	.	8r	.	8r	.	8r	.	.	.	.	.	.	.	.	.	.	.	.	.
.	8r	.	.	.	.	.	.	.	.	.	.	.	.	.	8d\	.	8f/	.	8a/	.	.	.	.	.	.	.	.	.	.	.	.	.
=40	=40	=40	=40	=40	=40	=40	=40	=40	=40	=40	=40	=40	=40	=40	=40	=40	=40	=40	=40	=40	=40	=40	=40	=40	=40	=40	=40	=40	=40	=40	=40	=40
!!LO:PB:g=original
1ryy	8G\	.	1r	.	.	1r	.	.	2B/	Nie-	.	1r	.	.	8r	.	8r	.	8r	.	1ryy	.	1ryy	.	1ryy	.	1ryy	.	1ryy	.	1ryy	.
.	8r	.	.	.	.	.	.	.	.	.	.	.	.	.	8D/	.	8G/	.	8B/	.	.	.	.	.	.	.	.	.	.	.	.	.
.	8F\	.	.	.	.	.	.	.	.	.	.	.	.	.	8r	.	8r	.	8r	.	.	.	.	.	.	.	.	.	.	.	.	.
.	8r	.	.	.	.	.	.	.	.	.	.	.	.	.	8D/	.	8G/	.	8B/	.	.	.	.	.	.	.	.	.	.	.	.	.
.	8E\	.	.	.	.	.	.	.	4c/	-ba	.	.	.	.	8r	.	8r	.	8r	.	.	.	.	.	.	.	.	.	.	.	.	.
.	8r	.	.	.	.	.	.	.	.	.	.	.	.	.	8C/	.	8G/	.	8c/	.	.	.	.	.	.	.	.	.	.	.	.	.
.	8C/	.	.	.	.	.	.	.	4e/	o-	.	.	.	.	8r	.	8r	.	8r	.	.	.	.	.	.	.	.	.	.	.	.	.
.	8r	.	.	.	.	.	.	.	.	.	.	.	.	.	8G/	.	8c/	.	8e/	.	.	.	.	.	.	.	.	.	.	.	.	.
=41	=41	=41	=41	=41	=41	=41	=41	=41	=41	=41	=41	=41	=41	=41	=41	=41	=41	=41	=41	=41	=41	=41	=41	=41	=41	=41	=41	=41	=41	=41	=41	=41
1ryy	8C/	.	1r	.	.	1r	.	.	(4.e/	-zna-	.	1r	.	.	8r	.	8r	.	8r	.	1ryy	.	1ryy	.	1ryy	.	1ryy	.	1ryy	.	1ryy	.
.	8r	.	.	.	.	.	.	.	.	.	.	.	.	.	8G/	.	8c/	.	8e/	.	.	.	.	.	.	.	.	.	.	.	.	.
.	8C/	.	.	.	.	.	.	.	.	.	.	.	.	.	8r	.	8r	.	8r	.	.	.	.	.	.	.	.	.	.	.	.	.
.	8r	.	.	.	.	.	.	.	16f/LL	.	.	.	.	.	8G/	.	8c/	.	8e/	.	.	.	.	.	.	.	.	.	.	.	.	.
.	.	.	.	.	.	.	.	.	16e/JJ)	.	.	.	.	.	.	.	.	.	.	.	.	.	.	.	.	.	.	.	.	.	.	.
.	8GG/	.	.	.	.	.	.	.	4d/	-czył	.	.	.	.	8r	.	8r	.	8r	.	.	.	.	.	.	.	.	.	.	.	.	.
.	8r	.	.	.	.	.	.	.	.	.	.	.	.	.	8G/	.	8B/	.	8d/	.	.	.	.	.	.	.	.	.	.	.	.	.
.	8AA/	.	.	.	.	.	.	.	4c/	nam	.	.	.	.	8r	.	8r	.	8r	.	.	.	.	.	.	.	.	.	.	.	.	.
.	8r	.	.	.	.	.	.	.	.	.	.	.	.	.	8E/	.	8A/	.	8c/	.	.	.	.	.	.	.	.	.	.	.	.	.
=42	=42	=42	=42	=42	=42	=42	=42	=42	=42	=42	=42	=42	=42	=42	=42	=42	=42	=42	=42	=42	=42	=42	=42	=42	=42	=42	=42	=42	=42	=42	=42	=42
1ryy	8GG/	.	1r	.	.	2r	.	.	2d/	śla-	.	2r	.	.	8r	.	8r	.	8r	.	1ryy	.	1ryy	.	1ryy	.	1ryy	.	1ryy	.	1ryy	.
.	8r	.	.	.	.	.	.	.	.	.	.	.	.	.	8G/	.	8B/	.	8d/	<	.	.	.	.	.	.	.	.	.	.	.	.
.	8BB/	.	.	.	.	.	.	.	.	.	.	.	.	.	8r	.	8r	.	8r	.	.	.	.	.	.	.	.	.	.	.	.	.
.	8r	.	.	.	.	.	.	.	.	.	.	.	.	.	8B\	.	8d/	.	8g/	.	.	.	.	.	.	.	.	.	.	.	.	.
.	8D/	.	.	.	.	4r	.	.	4d/	-dy	.	4r	.	.	8r	.	8r	.	8r	.	.	.	.	.	.	.	.	.	.	.	.	.
.	8r	.	.	.	.	.	.	.	.	.	.	.	.	.	8d\	.	8g/	.	8b\	.	.	.	.	.	.	.	.	.	.	.	.	.
.	8G\	.	.	.	.	4g\	.	.	4b\	.	.	4dd\	A	.	8r	.	8r	.	8r	[	.	.	.	.	.	.	.	.	.	.	.	.
.	8r	.	.	.	.	.	.	.	.	.	.	.	.	.	8g\	.	8b\	.	8dd\	.	.	.	.	.	.	.	.	.	.	.	.	.
=43	=43	=43	=43	=43	=43	=43	=43	=43	=43	=43	=43	=43	=43	=43	=43	=43	=43	=43	=43	=43	=43	=43	=43	=43	=43	=43	=43	=43	=43	=43	=43	=43
*	*^	*	*	*	*	*	*	*	*	*	*	*	*	*	*	*	*	*	*	*	*	*	*	*	*	*	*^	*	*	*	*	*
!	!LO:TX:a:t=V&colon;C	!	!	!	!	!	!	!	!	!	!	!	!	!	!	!	!	!LO:TX:a:t=col 1o	!	!	!	!	!	!	!	!	!	!	!	!LO:DY:rj	!	!LO:DY:rj	!	!LO:DY:rj
1ryy	4g/	1r	pp	1r	.	.	2g\	.	.	2b\	.	.	2dd\	po	.	4g\	pp	8ryy	.	8r	.	1r	.	1r	.	1r	.	(2gg/	2g\	pp	(2bb\	pp	2ddd\	pp
.	.	.	.	.	.	.	.	.	.	.	.	.	.	.	.	.	.	.	ppy	.	pp	.	.	.	.	.	.	.	.	.	.	.	.	.
.	.	.	.	.	.	.	.	.	.	.	.	.	.	.	.	.	.	(8g\Lyy	.	(8g\L	.	.	.	.	.	.	.	.	.	.	.	.	.	.
.	4r	.	.	.	.	.	.	.	.	.	.	.	.	.	.	4r	.	8b\yy	.	8b\	.	.	.	.	.	.	.	.	.	.	.	.	.	.
.	.	.	.	.	.	.	.	.	.	.	.	.	.	.	.	.	.	8dd\J)yy	.	8dd\J)	.	.	.	.	.	.	.	.	.	.	.	.	.	.
.	4f#X/	.	.	.	.	.	2f#X\	.	.	2a\	.	.	2dd\	Bo-	.	4f#X\	.	8ryy	.	8r	.	.	.	.	.	.	.	2dd/	2f#X\	.	2aa\	.	[2ddd\	.
.	.	.	.	.	.	.	.	.	.	.	.	.	.	.	.	.	.	(8f#X\Lyy	.	(8f#X\L	.	.	.	.	.	.	.	.	.	.	.	.	.	.
.	4r	.	.	.	.	.	.	.	.	.	.	.	.	.	.	4r	.	8a\yy	.	8a\	.	.	.	.	.	.	.	.	.	.	.	.	.	.
.	.	.	.	.	.	.	.	.	.	.	.	.	.	.	.	.	.	8dd\J)yy	.	8dd\J)	.	.	.	.	.	.	.	.	.	.	.	.	.	.
=44	=44	=44	=44	=44	=44	=44	=44	=44	=44	=44	=44	=44	=44	=44	=44	=44	=44	=44	=44	=44	=44	=44	=44	=44	=44	=44	=44	=44	=44	=44	=44	=44	=44	=44
1ryy	4e/	1r	.	1r	.	.	2e\	.	.	2g/	.	.	(4.dd\	-że-	.	4e\	.	8ryy	.	8r	.	1r	.	1r	.	1r	.	2ee/	2e\	.	1gg	.	(4.ddd\]	.
.	.	.	.	.	.	.	.	.	.	.	.	.	.	.	.	.	.	(8e/Lyy	.	(8e/L	.	.	.	.	.	.	.	.	.	.	.	.	.	.
.	4r	.	.	.	.	.	.	.	.	.	.	.	.	.	.	4r	.	8g/yy	.	8g/	.	.	.	.	.	.	.	.	.	.	.	.	.	.
.	.	.	.	.	.	.	.	.	.	.	.	.	8cc\)	.	.	.	.	8cc/J)yy	.	8cc/J)	.	.	.	.	.	.	.	.	.	.	.	.	8ccc\	.
.	4d/	.	.	.	.	.	4d\	.	.	4g/	.	.	4b\	-mu	.	4d\	.	8ryy	.	8r	.	.	.	.	.	.	.	2dd/	2d\	.	.	.	2bb\)	.
.	.	.	.	.	.	.	.	.	.	.	.	.	.	.	.	.	.	(8d/Lyy	.	(8d/L	.	.	.	.	.	.	.	.	.	.	.	.	.	.
.	4r	.	.	.	.	.	4d\	.	.	4g/	.	.	4b\	na	.	4r	.	8g/yy	.	8g/	.	.	.	.	.	.	.	.	.	.	.	.	.	.
.	.	.	.	.	.	.	.	.	.	.	.	.	.	.	.	.	.	8b/J)yy	.	8b/J)	.	.	.	.	.	.	.	.	.	.	.	.	.	.
=45	=45	=45	=45	=45	=45	=45	=45	=45	=45	=45	=45	=45	=45	=45	=45	=45	=45	=45	=45	=45	=45	=45	=45	=45	=45	=45	=45	=45	=45	=45	=45	=45	=45	=45
!!LO:PB:g=original
!	!	!	!	!	!	!	!	!	!	!	!	!	!	!	!	!	!	!	!	!	!	!	!	!	!	!	!	!LO:TX:t=P:problem:brak zakończenia łuku	!	!	!LO:TX:t=P:problem:brak zakończenia łuku	!	!	!
1ryy	4c/	1r	.	2r	.	.	2c\	.	.	2e/	.	.	(4.a/	wie-	.	4c/	.	8ryy	.	8r	.	1r	.	1r	.	1r	.	2cc/)	2c\	p	(1ee)	.	(4.aa\	.
.	.	.	.	.	.	.	.	.	.	.	.	.	.	.	.	.	.	(8c/Lyy	.	(8c/L	.	.	.	.	.	.	.	.	.	.	.	.	.	.
.	4r	.	.	.	.	.	.	.	.	.	.	.	.	.	.	4r	.	8e/yy	.	8e/	.	.	.	.	.	.	.	.	.	.	.	.	.	.
.	.	.	.	.	.	.	.	.	.	.	.	.	16b/LL	.	.	.	.	8a/J)yy	.	8a/J)	.	.	.	.	.	.	.	.	.	.	.	.	16bb\LL	.
.	.	.	.	.	.	.	.	.	.	.	.	.	16a/JJ)	.	.	.	.	.	.	.	.	.	.	.	.	.	.	.	.	.	.	.	16aa\JJ	.
*	*	*	*	*	*	*	*	*	*	*	*	*	*	*	*	*	*	*	*	*	*	*	*	*	*	*	*	*v	*v	*	*	*	*	*
*	*	*	*	*	*	*	*	*	*	*	*	*	*	*	*	*	*	*rep	*	*rep	*	*	*	*	*	*	*	*	*	*	*	*	*
*	*	*	*	*	*	*	*	*	*	*	*	*	*	*	*	*	*	*	*	*	*	*	*	*	*	*	*	*^	*	*	*	*	*
.	4c/	.	.	4r	.	.	4c\	.	.	4e/	.	.	4g/	-ki	.	4c/	.	8ryy	.	8r	.	.	.	.	.	.	.	[2ee/	2cc\	.	.	.	4gg\)	.
.	.	.	.	.	.	.	.	.	.	.	.	.	.	.	.	.	.	(8c/Lyy	.	(8c/L	.	.	.	.	.	.	.	.	.	.	.	.	.	.
.	4r	.	.	4c\	zo-	.	4e\	.	.	4e/	.	.	4a/	zo-	.	4r	.	8e/yy	.	8e/	.	.	.	.	.	.	.	.	.	.	.	.	4aa\	.
.	.	.	.	.	.	.	.	.	.	.	.	.	.	.	.	.	.	8a/J)yy	.	8a/J)	.	.	.	.	.	.	.	.	.	.	.	.	.	.
*	*v	*v	*	*	*	*	*	*	*	*	*	*	*	*	*	*	*	*	*	*	*	*	*	*	*	*	*	*v	*v	*	*	*	*	*
*	*	*	*	*	*	*	*	*	*	*	*	*	*	*	*	*	*Xrep	*	*Xrep	*	*	*	*	*	*	*	*	*	*	*	*	*
=46	=46	=46	=46	=46	=46	=46	=46	=46	=46	=46	=46	=46	=46	=46	=46	=46	=46	=46	=46	=46	=46	=46	=46	=46	=46	=46	=46	=46	=46	=46	=46	=46
*	*^	*	*	*	*	*	*	*	*	*	*	*	*	*	*	*	*	*	*	*	*	*	*	*	*	*	*^	*	*	*	*	*
1ryy	4B/	2r	.	2B\	-sta-	.	(4e\	.	.	2f#X/	.	.	2b\	-sta-	.	4B/	.	8ryy	.	8r	.	1r	.	2r	.	1r	.	4ee/]	1b	.	1ff#X)	.	1bb	.
.	.	.	.	.	.	.	.	.	.	.	.	.	.	.	.	.	.	(8e/Lyy	.	(8e/L	.	.	.	.	.	.	.	.	.	.	.	.	.	.
.	4r	.	.	.	.	.	8d#X\L	.	.	.	.	.	.	.	.	4r	.	8f#X/yy	.	8f#X/	.	.	.	.	.	.	.	8dd#X/L	.	.	.	.	.	.
.	.	.	.	.	.	.	8c#X\J)	.	.	.	.	.	.	.	.	.	.	8b/J)yy	.	8b/J)	.	.	.	.	.	.	.	8cc#X/J	.	.	.	.	.	.
.	4A/	4A\	.	4B\	-wił	.	4d#\	.	.	4f#/	.	.	4b\	-wił	.	4B/	.	8ryy	.	8r	.	.	.	(2B\	p	.	.	2dd#/	.	.	.	.	.	.
.	.	.	.	.	.	.	.	.	.	.	.	.	.	.	.	.	.	(8d#X/Lyy	.	(8d#X/L	.	.	.	.	.	.	.	.	.	.	.	.	.	.
.	4r	4ryy	.	4B\	na-	.	4d#\	.	.	4f#/	.	.	4b\	na-	.	4r	.	8f#/yy	.	8f#/	.	.	.	.	.	.	.	.	.	.	.	.	.	.
.	.	.	.	.	.	.	.	.	.	.	.	.	.	.	.	.	.	8b/J)yy	.	8b/J)	.	.	.	.	.	.	.	.	.	.	.	.	.	.
=47	=47	=47	=47	=47	=47	=47	=47	=47	=47	=47	=47	=47	=47	=47	=47	=47	=47	=47	=47	=47	=47	=47	=47	=47	=47	=47	=47	=47	=47	=47	=47	=47	=47	=47
*	*	*	*	*	*	*	*	*	*	*	*	*	*	*	*	*	*	*	*	*	*	*	*	*	*	*	*	*	*	*	*^	*	*	*
!	!	!	!	!	!	!	!	!	!	!LO:SIC:v:s=2f#	!	!	!	!	!	!	!	!	!	!	!	!	!	!	!	!	!	!	!	!	!	!	!	!	!
1ryy	4A/	4A\	.	2A\	-u-	.	2d#X\	.	.	2f/	.	.	2cc\	-u-	.	4A/	.	8ryy	.	8r	.	1ryy	.	2A\	.	1r	.	2dd#X/	2f#X\	.	2ff#X/	2ff#\	.	2ccc\	.
.	.	.	.	.	.	.	.	.	.	.	.	.	.	.	.	.	.	(8d#X/Lyy	.	(8d#X/L	.	.	.	.	.	.	.	.	.	.	.	.	.	.	.
.	4r	4ryy	.	.	.	.	.	.	.	.	.	.	.	.	.	4r	.	8f#X/yy	.	8f#X/	.	.	.	.	.	.	.	.	.	.	.	.	.	.	.
.	.	.	.	.	.	.	.	.	.	.	.	.	.	.	.	.	.	8cc-/J)yy	.	8cc-/J)	.	.	.	.	.	.	.	.	.	.	.	.	.	.	.
.	4G/	4G\	.	2G\	-ki	.	2e\	.	.	2g/	.	.	2b\	-ki	.	4G/	.	8ryy	.	8r	.	.	.	2G\)	.	.	.	2ee/	2g\	.	2ee\	2ryy	.	2bb\	.
.	.	.	.	.	.	.	.	.	.	.	.	.	.	.	.	.	.	(8e/Lyy	.	(8e/L	.	.	.	.	.	.	.	.	.	.	.	.	.	.	.
.	4r	4ryy	.	.	.	.	.	.	.	.	.	.	.	.	.	4r	.	8g/yy	.	8g/	.	.	.	.	.	.	.	.	.	.	.	.	.	.	.
.	.	.	.	.	.	.	.	.	.	.	.	.	.	.	.	.	.	8b/J)yy	.	8b/J)	.	.	.	.	.	.	.	.	.	.	.	.	.	.	.
*	*v	*v	*	*	*	*	*	*	*	*	*	*	*	*	*	*	*	*	*	*	*	*	*	*	*	*	*	*	*	*	*v	*v	*	*	*
=48	=48	=48	=48	=48	=48	=48	=48	=48	=48	=48	=48	=48	=48	=48	=48	=48	=48	=48	=48	=48	=48	=48	=48	=48	=48	=48	=48	=48	=48	=48	=48	=48	=48
*	*	*	*	*	*	*	*	*	*	*	*	*	*	*	*	*	*	*	*	*	*^	*	*	*	*^	*	*	*	*	*	*	*	*
1ryy	4c\	.	2c\	świę-	.	2c\	.	.	2g/	.	.	2ee\	świę-	.	4c/	.	8ryy	.	8r	.	2ee/	2cc\	.	(2c\	.	2ee/	2cc\	.	2cc/	1g	.	1gg	.	2eee\	.
.	.	.	.	.	.	.	.	.	.	.	.	.	.	.	.	.	(8g/Lyy	.	(8g/L	.	.	.	.	.	.	.	.	.	.	.	.	.	.	.	.
.	4r	.	.	.	.	.	.	.	.	.	.	.	.	.	4r	.	8cc/yy	.	8cc/	.	.	.	.	.	.	.	.	.	.	.	.	.	.	.	.
.	.	.	.	.	.	.	.	.	.	.	.	.	.	.	.	.	8ee/J)yy	.	8ee/J)	.	.	.	.	.	.	.	.	.	.	.	.	.	.	.	.
.	4B\	.	4B\	-te	.	4d\	.	.	4g/	.	.	4dd\	-te	.	4B/	.	8ryy	.	8r	.	4dd/	4g/	.	2B\	.	4dd/	4g\	.	(2dd/	.	.	.	.	[2ddd\	.
.	.	.	.	.	.	.	.	.	.	.	.	.	.	.	.	.	(8d/Lyy	.	(8d/L	.	.	.	.	.	.	.	.	.	.	.	.	.	.	.	.
.	4r	.	4B\	I	.	4d\	.	.	4g/	.	.	4dd\	I	.	4r	.	8g/yy	.	8g/	.	4r	4ryy	.	.	.	4r	4ryy	.	.	.	.	.	.	.	.
.	.	.	.	.	.	.	.	.	.	.	.	.	.	.	.	.	8dd/J)yy	.	8dd/J)	.	.	.	.	.	.	.	.	.	.	.	.	.	.	.	.
*	*	*	*	*	*	*	*	*	*	*	*	*	*	*	*	*	*	*	*	*	*v	*v	*	*	*	*v	*v	*	*	*	*	*	*	*	*
=49	=49	=49	=49	=49	=49	=49	=49	=49	=49	=49	=49	=49	=49	=49	=49	=49	=49	=49	=49	=49	=49	=49	=49	=49	=49	=49	=49	=49	=49	=49	=49	=49	=49
*	*	*	*	*	*	*	*	*	*	*	*	*	*	*	*	*	*	*	*	*	*	*	*	*	*	*	*	*	*	*^	*	*	*
1ryy	8A\	.	2A\	świę-	.	4e\	.	.	(4e/	.	.	(4dd\	świę-	.	8r	.	8r	.	8r	.	1r	.	2A\	.	1r	.	4ee/)	2a\	.	4ee/	4ee\	.	4ddd\]	.
.	8r	.	.	.	.	.	.	.	.	.	.	.	.	.	8e\	.	8e/	.	8dd\	.	.	.	.	.	.	.	.	.	.	.	.	.	.	.
.	8A\	.	.	.	.	4d#X\	.	.	4f#X/)	.	.	4cc\)	.	.	8r	.	8r	.	8r	.	.	.	.	.	.	.	4dd#X/	.	.	4ff#X/	4dd\	.	(4ccc\	.
.	8r	.	.	.	.	.	.	.	.	.	.	.	.	.	8d#X\	.	8f#X/	.	8cc\	.	.	.	.	.	.	.	.	.	.	.	.	.	.	.
.	8B\	.	4B\	-te	.	4e\	.	.	4g/	.	.	4b\	-te	.	8r	.	8r	.	8r	.	.	.	4B\	.	.	.	4ee/	2b\	.	4gg/	4ee\	.	4bb\	.
.	8r	.	.	.	.	.	.	.	.	.	.	.	.	.	8e\	.	8g 8B/	.	8b\	.	.	.	.	.	.	.	.	.	.	.	.	.	.	.
.	8BB/	.	4BB/	przy-	.	4f#X\	.	.	4a/	.	.	4dd#X\	przy-	.	8r	.	8r	.	8r	.	.	.	4BB/)	.	.	.	4ff#X/	.	.	4aa/	4ff#X\	<	4ddd#X\)	.
.	8r	.	.	.	.	.	.	.	.	.	.	.	.	.	8f#X\	.	8a 8B/	.	8dd#X\	.	.	.	.	.	.	.	.	.	.	.	.	.	.	.
=50	=50	=50	=50	=50	=50	=50	=50	=50	=50	=50	=50	=50	=50	=50	=50	=50	=50	=50	=50	=50	=50	=50	=50	=50	=50	=50	=50	=50	=50	=50	=50	=50	=50	=50
*	*	*	*	*	*	*	*	*	*	*	*	*	*	*	*	*	*	*	*	*	*^	*	*	*	*	*	*	*	*	*	*	*	*	*
1ryy	4E\	<	2E\	-kła-	.	2e\	.	.	2g/	.	.	2ee\	-kła-	.	4e\	.	8r	.	8r	.	2ee/	2g\	.	2E\	<	2ee 2e/	.	2ee/	2b\	<	2gg/	1ee	.	(2eee\	<
.	.	.	.	.	.	.	.	.	.	.	.	.	.	.	.	.	(8e/L	.	(8e/L	.	.	.	.	.	.	.	.	.	.	.	.	.	.	.	.
.	4r	.	.	.	.	.	.	.	.	.	.	.	.	.	4r	.	8g/	.	8g/	.	.	.	.	.	.	.	.	.	.	.	.	.	.	.	.
.	.	.	.	.	.	.	.	.	.	.	.	.	.	.	.	.	8e/J)	.	8ee/J)	.	.	.	.	.	.	.	.	.	.	.	.	.	.	.	.
!	!	!	!	!	!	!	!	!	!	!	!	!	!	!	!	!	!	!	!	!	!	!	!	!	!	!	!	!LO:TX:a:t=d	!	!	!	!	!	!	!
.	4E\	.	2E\	-dy	.	2e\	.	.	2g#X/	.	.	2dd\	-dy	.	4e\	.	8r	.	8r	.	2dd/	2g#X\	.	2e 2E\	.	2ee 2e/	.	2dd/	2b\	.	2gg#X/	.	.	2ddd\)	.
.	.	.	.	.	.	.	.	.	.	.	.	.	.	.	.	.	(8e/L	.	(8e/L	.	.	.	.	.	.	.	.	.	.	.	.	.	.	.	.
.	4r	.	.	.	.	.	.	.	.	.	.	.	.	.	4r	.	8g#X/	.	8g#X/	.	.	.	.	.	.	.	.	.	.	.	.	.	.	.	.
.	.	.	.	.	.	.	.	.	.	.	.	.	.	.	.	.	8e/J)	.	8dd/J)	.	.	.	.	.	.	.	.	.	.	.	.	.	.	.	[[
=51	=51	=51	=51	=51	=51	=51	=51	=51	=51	=51	=51	=51	=51	=51	=51	=51	=51	=51	=51	=51	=51	=51	=51	=51	=51	=51	=51	=51	=51	=51	=51	=51	=51	=51	=51
2.ryy	4E\	.	2E\	świę-	.	2e\	.	.	2a/	.	.	2cc\	świę-	.	4e\	.	8r	.	8r	.	2cc/	2a\	.	(2e 2E\	[ >	2ee 2e/	.	2cc/	2a\	[ >	(2aa/	2ee\	[ >	(2ccc\	>
.	.	.	.	.	.	.	.	.	.	.	.	.	.	.	.	.	(8e/L	.	(8e/L	.	.	.	.	.	.	.	.	.	.	.	.	.	.	.	.
.	4r	.	.	.	.	.	.	.	.	.	.	.	.	.	4r	.	8a/	.	8a/	.	.	.	.	.	.	.	.	.	.	.	.	.	.	.	.
.	.	[[	.	.	.	.	.	.	.	.	.	.	.	.	.	.	8e/J)	.	8cc/J)	.	.	.	.	.	.	.	.	.	.	.	.	.	.	.	.
!	!	!	!	!	!	!	!	!	!	!	!	!	!	!	!	!	!	!	!	!	!	!	!	!	!	!	!	!	!	!	!LO:TX:t=P:problem:łuk do następnego taktu	!	!	!	!
.	4E\	>	4E\	-te	.	4d\	.	.	4e/	.	.	4g#X/	-te	.	4e\	.	8r	.	8r	.	2b/	2g#X\	.	4d 4E\)	.	2ee 2e/	.	[4g#X/	[4e/	.	2dd/)	2b\	.	4gg#X\)	.
!	!	!	!	!	!	!	!	!	!	!	!	!	!	!	!	!	!LO:TX:t=P:problem:cross-measure beam	!	!LO:TX:t=P:problem:cross-measure beam	!	!	!	!	!	!	!	!	!	!	!	!	!	!	!	!
.	.	.	.	.	.	.	.	.	.	.	.	.	.	.	.	.	(8g#X/L	.	8d/L	.	.	.	.	.	]]	.	.	.	.	]]	.	.	]]	.	.
*	*	*	*	*	*	*	*	*	*	*	*	*	*	*	*	*	*	*	*	*	*	*	*	*	*	*	*	*v	*v	*	*	*	*	*	*
=||	=||	=||	=||	=||	=||	=||	=||	=||	=||	=||	=||	=||	=||	=||	=||	=||	=||	=||	=||	=||	=||	=||	=||	=||	=||	=||	=||	=||	=||	=||	=||	=||	=||	=||
!	!	!	!	!	!	!	!	!	!	!	!	!LO:TX:a:t=tutti	!	!	!	!	!	!	!	!	!	!	!	!	!	!	!	!	!	!	!	!	!	!
4ryy	4r	]]	4E\	Wie-	.	4d\	.	.	4e/	.	.	4g#X/	Wie-	.	4r	.	8e/	.	(8e/	.	.	.	.	4d 4E\	.	.	.	4g#] 4e/]	.	.	.	.	4r	]
.	.	.	.	.	.	.	.	.	.	.	.	.	.	.	.	.	8d/J)	.	8g#X/J)	.	.	.	.	.	.	.	.	.	.	.	.	.	.	.
*	*	*	*	*	*	*	*	*	*	*	*	*	*	*	*	*	*	*	*	*	*	*	*	*	*	*	*	*	*	*v	*v	*	*	*
=52	=52	=52	=52	=52	=52	=52	=52	=52	=52	=52	=52	=52	=52	=52	=52	=52	=52	=52	=52	=52	=52	=52	=52	=52	=52	=52	=52	=52	=52	=52	=52	=52	=52
!!LO:PB:g=original
1ryy	1ryy	.	2A\	.	.	2c\	.	.	2e/	.	.	2a/	-rze-	.	1ryy	.	1ryy	.	1ryy	.	1ryy	1ryy	.	1ryy	.	1ryy	.	1ryy	.	1ryy	.	1ryy	.
.	.	.	2A\	.	.	2c\	.	.	2e/	.	.	2cc\	-my	.	.	.	.	.	.	.	.	.	.	.	.	.	.	.	.	.	.	.	.
*	*	*	*	*	*	*	*	*	*	*	*	*	*	*	*	*	*	*	*	*	*v	*v	*	*	*	*	*	*	*	*	*	*	*
=53	=53	=53	=53	=53	=53	=53	=53	=53	=53	=53	=53	=53	=53	=53	=53	=53	=53	=53	=53	=53	=53	=53	=53	=53	=53	=53	=53	=53	=53	=53	=53	=53
1ryy	1ryy	.	2A\	.	.	2d\	.	.	2f/	.	.	2b\	w Bo-	.	1ryy	.	1ryy	.	1ryy	.	1ryy	.	1ryy	.	1ryy	.	1ryy	.	1ryy	.	1ryy	.
.	.	.	4A\	.	.	4c\	.	.	4e/	.	.	4a\	-ga	.	.	.	.	.	.	.	.	.	.	.	.	.	.	.	.	.	.	.
.	.	.	4A\	.	.	4c\	.	.	4e/	.	.	4a\	ie-	.	.	.	.	.	.	.	.	.	.	.	.	.	.	.	.	.	.	.
=54	=54	=54	=54	=54	=54	=54	=54	=54	=54	=54	=54	=54	=54	=54	=54	=54	=54	=54	=54	=54	=54	=54	=54	=54	=54	=54	=54	=54	=54	=54	=54	=54
1ryy	1ryy	.	(4E\	.	.	2B\	.	.	2e/	.	.	2g#X/	-dne-	.	1ryy	.	1ryy	.	1ryy	.	1ryy	.	1ryy	.	1ryy	.	1ryy	.	1ryy	.	1ryy	.
.	.	.	4D\	.	.	.	.	.	.	.	.	.	.	.	.	.	.	.	.	.	.	.	.	.	.	.	.	.	.	.	.	.
.	.	.	4C\)	.	.	4c\	.	.	4e/	.	.	4a/	-go	.	.	.	.	.	.	.	.	.	.	.	.	.	.	.	.	.	.	.
.	.	.	4GG#X/	.	.	4e\	.	.	4e/	.	.	4b\	na	.	.	.	.	.	.	.	.	.	.	.	.	.	.	.	.	.	.	.
=55	=55	=55	=55	=55	=55	=55	=55	=55	=55	=55	=55	=55	=55	=55	=55	=55	=55	=55	=55	=55	=55	=55	=55	=55	=55	=55	=55	=55	=55	=55	=55	=55
1ryy	1ryy	.	(4.AA/	.	.	2e\	.	.	2a/	.	.	2cc\	wie-	.	1ryy	.	1ryy	.	1ryy	.	1ryy	.	1ryy	.	1ryy	.	1ryy	.	1ryy	.	1ryy	.
.	.	.	8C/)	.	.	.	.	.	.	.	.	.	.	.	.	.	.	.	.	.	.	.	.	.	.	.	.	.	.	.	.	.
.	.	.	4E\	.	.	4e\	.	.	4g#X/	.	.	4b\	-ki	.	.	.	.	.	.	.	.	.	.	.	.	.	.	.	.	.	.	.
.	.	.	4E\	.	.	4e\	.	.	4g#/	.	.	4b\	co	<	.	.	.	.	.	.	.	.	.	.	.	.	.	.	.	.	.	.
=56	=56	=56	=56	=56	=56	=56	=56	=56	=56	=56	=56	=56	=56	=56	=56	=56	=56	=56	=56	=56	=56	=56	=56	=56	=56	=56	=56	=56	=56	=56	=56	=56
!	!	!	!	!	!	!	!	!	!	!	!	!	!	!LO:DY:a	!	!	!	!	!	!	!	!	!	!	!	!	!	!	!	!	!	!
1ryy	1ryy	.	2A\	.	.	2e\	.	.	2a/	.	.	2cc\	ka-	.	1ryy	.	1ryy	.	1ryy	.	1ryy	.	1ryy	.	1ryy	.	1ryy	.	1ryy	.	1ryy	.
.	.	.	2G\	.	.	2e\	.	.	2a/	.	.	2cc#X\	-rze	[[	.	.	.	.	.	.	.	.	.	.	.	.	.	.	.	.	.	.
=57	=57	=57	=57	=57	=57	=57	=57	=57	=57	=57	=57	=57	=57	=57	=57	=57	=57	=57	=57	=57	=57	=57	=57	=57	=57	=57	=57	=57	=57	=57	=57	=57
!	!	!	!	!	!LO:DY:a	!	!	!LO:DY:a	!	!	!LO:DY:a	!	!	!LO:DY:a	!	!	!	!	!	!	!	!	!	!	!	!	!	!	!	!	!	!
1ryy	1ryy	.	2F\	.	f	2d\	.	f	2a/	.	f	2dd\	zbro-	f	1ryy	.	1ryy	.	1ryy	.	1ryy	.	1ryy	.	1ryy	.	1ryy	.	1ryy	.	1ryy	.
.	.	.	4D\	.	.	4d\	.	.	4a/	.	.	4ff\	-dnie	.	.	.	.	.	.	.	.	.	.	.	.	.	.	.	.	.	.	.
.	.	.	4D\	.	.	4d\	.	.	4f/	.	.	4a/	a	.	.	.	.	.	.	.	.	.	.	.	.	.	.	.	.	.	.	.
=58	=58	=58	=58	=58	=58	=58	=58	=58	=58	=58	=58	=58	=58	=58	=58	=58	=58	=58	=58	=58	=58	=58	=58	=58	=58	=58	=58	=58	=58	=58	=58	=58
1ryy	1ryy	.	2G\	.	.	2e\	.	.	4e/	.	.	(4g/	cno-	.	1ryy	.	1ryy	.	1ryy	.	1ryy	.	1ryy	.	1ryy	.	1ryy	.	1ryy	.	1ryy	.
.	.	.	.	.	.	.	.	.	4g/	.	.	4ee\)	.	.	.	.	.	.	.	.	.	.	.	.	.	.	.	.	.	.	.	.
.	.	.	4GG/	.	.	4f\	.	.	4a/	.	.	4ee\	-ty	.	.	.	.	.	.	.	.	.	.	.	.	.	.	.	.	.	.	.
.	.	.	4GG/	.	.	4f\	.	.	4b/	.	.	4dd\	na-	.	.	.	.	.	.	.	.	.	.	.	.	.	.	.	.	.	.	.
=59	=59	=59	=59	=59	=59	=59	=59	=59	=59	=59	=59	=59	=59	=59	=59	=59	=59	=59	=59	=59	=59	=59	=59	=59	=59	=59	=59	=59	=59	=59	=59	=59
1ryy	1ryy	.	2C/	.	.	2e\	.	.	2cc\	.	.	2cc\	-gra-	.	1ryy	.	1ryy	.	1ryy	.	1ryy	.	1ryy	.	1ryy	.	1ryy	.	1ryy	.	1ryy	.
.	.	.	4C/	.	.	4e\	.	.	4cc\	.	.	4cc\	-dza	.	.	.	.	.	.	.	.	.	.	.	.	.	.	.	.	.	.	.
.	.	.	4c\	.	.	4e\	.	.	4g/	.	.	4cc\	Świat	.	.	.	.	.	.	.	.	.	.	.	.	.	.	.	.	.	.	.
=60	=60	=60	=60	=60	=60	=60	=60	=60	=60	=60	=60	=60	=60	=60	=60	=60	=60	=60	=60	=60	=60	=60	=60	=60	=60	=60	=60	=60	=60	=60	=60	=60
!!LO:PB:g=original
!	!	!	!	!	!	!	!	!	!	!	!	!	!	!LO:DY:a	!	!	!	!	!	!	!	!	!	!	!	!	!	!	!	!	!	!
1ryy	1ryy	.	2B\	ca-	.	2e\	.	.	2g#X/	.	.	(4.ee\	.	>	1ryy	.	1ryy	.	1ryy	.	1ryy	.	1ryy	.	1ryy	.	1ryy	.	1ryy	.	1ryy	.
.	.	.	.	.	.	.	.	.	.	.	.	8dd\)	.	]	.	.	.	.	.	.	.	.	.	.	.	.	.	.	.	.	.	.
.	.	.	2A\	-ły	.	2e\	.	.	2a/	.	.	2cc\	.	.	.	.	.	.	.	.	.	.	.	.	.	.	.	.	.	.	.	.
=61	=61	=61	=61	=61	=61	=61	=61	=61	=61	=61	=61	=61	=61	=61	=61	=61	=61	=61	=61	=61	=61	=61	=61	=61	=61	=61	=61	=61	=61	=61	=61	=61
!	!	!	!	!	!	!	!	!	!	!	!	!	!	!LO:DY:a	!	!	!	!	!	!	!	!	!	!	!	!	!	!	!	!	!	!
1ryy	1ryy	.	2G#X\	z Je-	.	2e\	.	.	2b/	.	.	(4.ee\	.	>	1ryy	.	1ryy	.	1ryy	.	1ryy	.	1ryy	.	1ryy	.	1ryy	.	1ryy	.	1ryy	.
.	.	.	.	.	.	.	.	.	.	.	.	8dd\)	.	.	.	.	.	.	.	.	.	.	.	.	.	.	.	.	.	.	.	.
.	.	.	.	.	.	.	.	.	.	.	.	.	.	]	.	.	.	.	.	.	.	.	.	.	.	.	.	.	.	.	.	.
.	.	.	4A\	-go	.	4e\	.	.	4a/	.	.	4cc\	.	.	.	.	.	.	.	.	.	.	.	.	.	.	.	.	.	.	.	.
.	.	.	4A\	ist-	.	4e\	.	.	4a/	.	.	4cc\	.	.	.	.	.	.	.	.	.	.	.	.	.	.	.	.	.	.	.	.
=62	=62	=62	=62	=62	=62	=62	=62	=62	=62	=62	=62	=62	=62	=62	=62	=62	=62	=62	=62	=62	=62	=62	=62	=62	=62	=62	=62	=62	=62	=62	=62	=62
1ryy	1ryy	.	2D\	-nie-	.	2d\	.	.	2f/	.	.	2b\	.	.	1ryy	.	1ryy	.	1ryy	.	1ryy	.	1ryy	.	1ryy	.	1ryy	.	1ryy	.	1ryy	.
.	.	.	4D#X\	-ie	.	4B\	.	.	4f#X/	.	.	4b\	.	.	.	.	.	.	.	.	.	.	.	.	.	.	.	.	.	.	.	.
.	.	.	4D#\	o-	.	4B\	.	.	4f#/	.	.	4a\	.	.	.	.	.	.	.	.	.	.	.	.	.	.	.	.	.	.	.	.
=63	=63	=63	=63	=63	=63	=63	=63	=63	=63	=63	=63	=63	=63	=63	=63	=63	=63	=63	=63	=63	=63	=63	=63	=63	=63	=63	=63	=63	=63	=63	=63	=63
1ryy	1ryy	.	2E\	-pie-	.	2B\	.	.	(4.e/	.	.	(4.g#X/	.	.	1ryy	.	1ryy	.	1ryy	.	1ryy	.	1ryy	.	1ryy	.	1ryy	.	1ryy	.	1ryy	.
.	.	.	.	.	.	.	.	.	8g#X/)	.	.	8b/)	.	.	.	.	.	.	.	.	.	.	.	.	.	.	.	.	.	.	.	.
.	.	.	4E\	-ki	.	4B\	.	.	4g#/	.	.	4b/	.	.	.	.	.	.	.	.	.	.	.	.	.	.	.	.	.	.	.	.
.	.	.	4Dn\	w Mi-	.	4e\	.	.	4g#/	.	.	4b/	.	.	.	.	.	.	.	.	.	.	.	.	.	.	.	.	.	.	.	.
=64	=64	=64	=64	=64	=64	=64	=64	=64	=64	=64	=64	=64	=64	=64	=64	=64	=64	=64	=64	=64	=64	=64	=64	=64	=64	=64	=64	=64	=64	=64	=64	=64
1ryy	1ryy	.	2C/	-ło-	.	2e\	.	.	2a/	.	.	2ee\	.	.	1ryy	.	1ryy	.	1ryy	.	1ryy	.	1ryy	.	1ryy	.	1ryy	.	1ryy	.	1ryy	.
.	.	.	2C/	-ści	.	2e\	.	.	2a/	.	.	2a/	.	.	.	.	.	.	.	.	.	.	.	.	.	.	.	.	.	.	.	.
=65	=65	=65	=65	=65	=65	=65	=65	=65	=65	=65	=65	=65	=65	=65	=65	=65	=65	=65	=65	=65	=65	=65	=65	=65	=65	=65	=65	=65	=65	=65	=65	=65
1ryy	1ryy	.	2D\	Je-	.	2d\	.	.	2a/	.	.	2ff\	.	.	1ryy	.	1ryy	.	1ryy	.	1ryy	.	1ryy	.	1ryy	.	1ryy	.	1ryy	.	1ryy	.
.	.	.	4D\	-go	.	4d\	.	.	4f/	.	.	4a/	.	.	.	.	.	.	.	.	.	.	.	.	.	.	.	.	.	.	.	.
.	.	.	4D\	i	.	4f\	.	.	4f/	.	.	4b/	.	.	.	.	.	.	.	.	.	.	.	.	.	.	.	.	.	.	.	.
=66	=66	=66	=66	=66	=66	=66	=66	=66	=66	=66	=66	=66	=66	=66	=66	=66	=66	=66	=66	=66	=66	=66	=66	=66	=66	=66	=66	=66	=66	=66	=66	=66
!!LO:PB:g=original
*	*	*	*	*	*	*	*	*	*	*	*	*	*	*	*	*	*	*	*	*	*	*	*^	*	*	*	*^	*	*	*	*	*
1ryy	8E\	.	2E\	.	.	2e\	.	.	2a/	.	.	2cc\	mą-	.	8r	.	8r	.	8r	.	1r	.	[2e/	[2E\	.	1r	.	2cc/	[2a\	.	1r	.	1r	.
.	8r	.	.	.	.	.	.	.	.	.	.	.	.	.	8e\	.	8a/	.	8cc\	.	.	.	.	.	.	.	.	.	.	.	.	.	.	.
*	*rep	*	*	*	*	*	*	*	*	*	*	*	*	*	*rep	*	*rep	*	*	*	*	*	*	*	*	*	*	*	*	*	*	*	*	*
.	8E\	.	.	.	.	.	.	.	.	.	.	.	.	.	8r	.	8r	.	8r	.	.	.	.	.	.	.	.	.	.	.	.	.	.	.
.	8r	.	.	.	.	.	.	.	.	.	.	.	.	.	8e\	.	8a/	.	8cc\	.	.	.	.	.	.	.	.	.	.	.	.	.	.	.
*	*	*	*	*	*	*	*	*	*	*	*	*	*	*	*	*	*	*	*	*	*	*	*v	*v	*	*	*	*v	*v	*	*	*	*	*
*	*Xrep	*	*	*	*	*	*	*	*	*	*	*	*	*	*Xrep	*	*Xrep	*	*	*	*	*	*	*	*	*	*	*	*	*	*	*
*	*rep	*	*	*	*	*	*	*	*	*	*	*	*	*	*rep	*	*rep	*	*	*	*	*	*	*	*	*	*	*	*	*	*	*
*	*	*	*	*	*	*	*	*	*	*	*	*	*	*	*	*	*	*	*	*	*	*	*^	*	*	*	*^	*	*	*	*	*
.	8E\	.	4.E\	.	.	4.e\	.	.	4.a/	.	.	4.b\	-drość	.	8r	.	8r	.	8r	.	.	.	4.e/]	4.E\]	.	.	.	2b/	4.a\]	.	.	.	.	.
.	8r	.	.	.	.	.	.	.	.	.	.	.	.	.	8e\	.	8a/	.	8b\	.	.	.	.	.	.	.	.	.	.	.	.	.	.	.
*	*Xrep	*	*	*	*	*	*	*	*	*	*	*	*	*	*Xrep	*	*Xrep	*	*	*	*	*	*	*	*	*	*	*	*	*	*	*	*	*
*	*rep	*	*	*	*	*	*	*	*	*	*	*	*	*	*	*	*	*	*	*	*	*	*	*	*	*	*	*	*	*	*	*	*	*
.	8E\	.	.	.	.	.	.	.	.	.	.	.	.	.	8r	.	8r	.	8r	.	.	.	.	.	.	.	.	.	.	.	.	.	.	.
.	8r	.	8E\	.	.	8d\	.	.	8g#X/	.	.	8b\	i	.	8d\	.	8g#X/	.	8b\	.	.	.	8d/	8E\	.	.	.	.	8g#X\	.	.	.	.	.
*	*	*	*	*	*	*	*	*	*	*	*	*	*	*	*	*	*	*	*	*	*	*	*v	*v	*	*	*	*v	*v	*	*	*	*	*
*	*Xrep	*	*	*	*	*	*	*	*	*	*	*	*	*	*	*	*	*	*	*	*	*	*	*	*	*	*	*	*	*	*	*
=67	=67	=67	=67	=67	=67	=67	=67	=67	=67	=67	=67	=67	=67	=67	=67	=67	=67	=67	=67	=67	=67	=67	=67	=67	=67	=67	=67	=67	=67	=67	=67	=67
*	*	*	*	*	*	*	*	*	*	*	*	*	*	*	*	*	*	*	*	*	*	*	*^	*	*	*	*^	*	*	*	*	*
!	!	!	!	!	!	!	!	!	!	!	!	!	!	!	!	!	!	!	!	!	!	!	!LO:N:vis=2.	!	!	!	!	!	!	!	!	!	!	!
2ryy	8AA/	.	2A\	.	.	2c\	.	.	2a/	.	.	2a/	wła-	.	8r	.	8r	.	8r	.	2r	.	2c/	2.A\	.	2r	.	2.a/	2.a\	.	2r	.	2r	.
.	8r	.	.	.	.	.	.	.	.	.	.	.	.	.	8c\	.	8a/	.	8a/	.	.	.	.	.	.	.	.	.	.	.	.	.	.	.
.	8C/L	.	.	.	.	.	.	.	.	.	.	.	.	.	8r	.	8r	.	8r	.	.	.	.	.	.	.	.	.	.	.	.	.	.	.
.	8E/J	.	.	.	.	.	.	.	.	.	.	.	.	.	8e\	.	8c/	.	8a/	<	.	.	.	.	.	.	.	.	.	.	.	.	.	.
4ryy	8A\	.	4A\	.	.	4c\	.	.	4a/	.	.	4a/	-dza.	.	8r	.	8r	.	8r	.	4r	.	4r	.	.	4r	.	.	.	.	4r	.	4r	.
.	8r	.	.	.	.	.	.	.	.	.	.	.	.	.	8e\	.	8c/	.	8a/	.	.	.	.	.	.	.	.	.	.	.	.	.	.	.
*	*	*	*	*	*	*	*	*	*	*	*	*	*	*	*	*	*	*	*	*	*	*	*v	*v	*	*	*	*	*	*	*	*	*	*
=:|!	=:|!	=:|!	=:|!	=:|!	=:|!	=:|!	=:|!	=:|!	=:|!	=:|!	=:|!	=:|!	=:|!	=:|!	=:|!	=:|!	=:|!	=:|!	=:|!	=:|!	=:|!	=:|!	=:|!	=:|!	=:|!	=:|!	=:|!	=:|!	=:|!	=:|!	=:|!	=:|!	=:|!
*>C	*>C	*	*>C	*	*	*>C	*	*	*>C	*	*	*>C	*	*	*>C	*	*>C	*	*>C	*	*>C	*	*>C	*	*>C	*	*>C	*>C	*	*>C	*	*>C	*
*	*	*	*	*	*	*	*	*	*	*	*	*	*	*	*	*	*	*	*	*	*	*	*	*	*^	*	*	*	*	*^	*	*	*
4ryy	8G\	.	4r	.	.	4r	.	.	4r	.	.	4r	.	.	8r	.	8r	.	8r	.	4a 4e/	.	4G\	.	4ee/	4cc#X\	.	4cc#X/	4a\	.	4ee/	4cc#X\	.	4aa\	.
.	8r	.	.	.	.	.	.	.	.	.	.	.	.	.	8e\	.	8c#X/	.	8a/	.	.	.	.	.	.	.	.	.	.	.	.	.	.	.	.
=68	=68	=68	=68	=68	=68	=68	=68	=68	=68	=68	=68	=68	=68	=68	=68	=68	=68	=68	=68	=68	=68	=68	=68	=68	=68	=68	=68	=68	=68	=68	=68	=68	=68	=68	=68
*	*	*	*	*	*	*	*	*	*	*	*	*	*	*	*	*	*	*	*	*	*^	*	*	*	*	*	*	*	*	*	*	*	*	*	*
*	*	*above	*	*	*	*	*	*	*	*	*	*	*	*	*	*	*	*	*	*	*	*	*	*	*	*	*	*	*	*	*	*	*	*	*	*
1ryy	8F\	<	1r	.	.	1r	.	.	1r	.	.	1r	.	.	8r	.	8r	.	8r	.	2a/	2f 2d\	.	2F\	<	2ff/	2dd\	.	2dd/	2a\	.	2ff\	2dd\	<	2aa\	<
.	8r	.	.	.	.	.	.	.	.	.	.	.	.	.	8f\	.	8d/	.	8a/	.	.	.	.	.	.	.	.	.	.	.	.	.	.	.	.	.
*	*	*	*	*	*	*	*	*	*	*	*	*	*	*	*rep	*	*	*	*	*	*	*	*	*	*	*	*	*	*	*	*	*	*	*	*	*
.	8F\	.	.	.	.	.	.	.	.	.	.	.	.	.	8r	.	8r	.	8r	.	.	.	.	.	.	.	.	.	.	.	.	.	.	.	.	.
.	8r	.	.	.	.	.	.	.	.	.	.	.	.	.	8f\	.	8d/	.	8a/	.	.	.	.	.	.	.	.	.	.	.	.	.	.	.	.	.
*	*	*	*	*	*	*	*	*	*	*	*	*	*	*	*	*	*	*	*	*	*	*	*	*	*	*v	*v	*	*	*	*	*v	*v	*	*	*
*	*	*	*	*	*	*	*	*	*	*	*	*	*	*	*	*	*	*	*	*	*v	*v	*	*	*	*	*	*v	*v	*	*	*	*	*
*	*	*	*	*	*	*	*	*	*	*	*	*	*	*	*Xrep	*	*	*	*	*	*	*	*	*	*	*	*	*	*	*	*	*
*	*	*	*	*	*	*	*	*	*	*	*	*	*	*	*rep	*	*rep	*	*	*	*	*	*	*	*	*	*	*	*	*	*	*
*	*	*	*	*	*	*	*	*	*	*	*	*	*	*	*	*	*	*	*	*	*^	*	*	*	*^	*	*^	*	*^	*	*	*
.	8D\	.	.	.	.	.	.	.	.	.	.	.	.	.	8r	.	8r	.	8r	.	2f/	2d\	.	2D\	[[	2ff/	2dd\	.	2dd/	2b\	.	2ff\	2ryy	.	2bb\	[[
.	8r	.	.	.	.	.	.	.	.	.	.	.	.	.	8f\	.	8d/	.	8b\	.	.	.	.	.	.	.	.	.	.	.	.	.	.	[	.	.
*	*	*	*	*	*	*	*	*	*	*	*	*	*	*	*Xrep	*	*Xrep	*	*	*	*	*	*	*	*	*	*	*	*	*	*	*	*	*	*	*
*	*	*	*	*	*	*	*	*	*	*	*	*	*	*	*rep	*	*rep	*	*	*	*	*	*	*	*	*	*	*	*	*	*	*	*	*	*	*
.	8D\	.	.	.	.	.	.	.	.	.	.	.	.	.	8r	.	8r	.	8r	.	.	.	.	.	.	.	.	.	.	.	.	.	.	.	.	.
.	8r	.	.	.	.	.	.	.	.	.	.	.	.	.	8f\	.	8d/	.	8b\	[	.	.	.	.	.	.	.	.	.	.	.	.	.	.	.	.
*	*	*	*	*	*	*	*	*	*	*	*	*	*	*	*	*	*	*	*	*	*	*	*	*	*	*v	*v	*	*	*	*	*v	*v	*	*	*
*	*	*	*	*	*	*	*	*	*	*	*	*	*	*	*	*	*	*	*	*	*v	*v	*	*	*	*	*	*v	*v	*	*	*	*	*
*	*	*	*	*	*	*	*	*	*	*	*	*	*	*	*Xrep	*	*Xrep	*	*	*	*	*	*	*	*	*	*	*	*	*	*	*
=69	=69	=69	=69	=69	=69	=69	=69	=69	=69	=69	=69	=69	=69	=69	=69	=69	=69	=69	=69	=69	=69	=69	=69	=69	=69	=69	=69	=69	=69	=69	=69	=69
*	*	*	*	*	*	*	*	*	*	*	*	*	*	*	*	*	*	*	*	*	*^	*	*	*	*^	*	*^	*	*	*	*	*
!	!	!LO:DY:a	!	!	!	!	!	!	!	!	!	!	!	!	!	!	!	!	!	!	!	!	!	!	!	!	!	!	!	!	!	!	!	!	!
1ryy	8E\	.	1r	.	.	1r	.	.	1r	.	.	1r	.	.	8r	.	8r	.	8r	.	2e/	2e\	.	2E\	.	2.ee/	2.ee\	.	2.cc/	2.a\	.	2.aa\	.	(2.ccc\	.
.	8r	[[	.	.	.	.	.	.	.	.	.	.	.	.	8e\	.	8c/	.	8a/	.	.	.	.	.	.	.	.	.	.	.	.	.	.	.	>
*	*rep	*	*	*	*	*	*	*	*	*	*	*	*	*	*rep	*	*rep	*	*	*	*	*	*	*	*	*	*	*	*	*	*	*	*	*	*
.	8E\yy	.	.	.	.	.	.	.	.	.	.	.	.	.	8r	.	8r	.	8r	.	.	.	.	.	.	.	.	.	.	.	.	.	.	.	.
.	8ryy	.	.	.	.	.	.	.	.	.	.	.	.	.	8e\	.	8c/	.	8a/	.	.	.	.	.	.	.	.	.	.	.	.	.	.	.	.
*	*	*	*	*	*	*	*	*	*	*	*	*	*	*	*	*	*	*	*	*	*v	*v	*	*	*	*	*	*	*	*	*	*	*	*	*
*	*Xrep	*	*	*	*	*	*	*	*	*	*	*	*	*	*Xrep	*	*Xrep	*	*	*	*	*	*	*	*	*	*	*	*	*	*	*	*	*
*	*rep	*	*	*	*	*	*	*	*	*	*	*	*	*	*rep	*	*rep	*	*	*	*	*	*	*	*	*	*	*	*	*	*	*	*	*
*	*	*	*	*	*	*	*	*	*	*	*	*	*	*	*	*	*	*	*	*	*^	*	*	*	*	*	*	*	*	*	*	*	*	*
.	8E\yy	.	.	.	.	.	.	.	.	.	.	.	.	.	8r	.	8r	.	8r	.	2r	2ryy	.	2E\	.	.	.	.	.	.	.	.	.	.	.
.	8ryy	.	.	.	.	.	.	.	.	.	.	.	.	.	8e\	.	8c/	.	8a/	.	.	.	.	.	.	.	.	.	.	.	.	.	.	.	.
*	*	*	*	*	*	*	*	*	*	*	*	*	*	*	*	*	*	*	*	*	*	*	*	*	*	*v	*v	*	*	*	*	*	*	*	*
*	*	*	*	*	*	*	*	*	*	*	*	*	*	*	*	*	*	*	*	*	*	*	*	*	*	*	*	*v	*v	*	*	*	*	*
*	*Xrep	*	*	*	*	*	*	*	*	*	*	*	*	*	*Xrep	*	*Xrep	*	*	*	*	*	*	*	*	*	*	*	*	*	*	*	*
*	*rep	*	*	*	*	*	*	*	*	*	*	*	*	*	*	*	*	*	*	*	*	*	*	*	*	*	*	*	*	*	*	*	*
*	*	*	*	*	*	*	*	*	*	*	*	*	*	*	*	*	*	*	*	*	*	*	*	*	*	*^	*	*^	*	*	*	*	*
.	8E\yy	.	.	.	.	.	.	.	.	.	.	.	.	.	8ryy	.	8ryy	.	8r	.	.	.	.	.	.	4ee/	4dd\	.	4b/	4g#X\	.	4gg#X\	.	4bb\)	]
.	8ryy	f	.	.	.	.	.	.	.	.	.	.	.	.	8e 8d\	.	8B/	.	8g#X/	.	.	.	.	.	.	.	.	.	.	.	.	.	.	.	.
*	*	*	*	*	*	*	*	*	*	*	*	*	*	*	*	*	*	*	*	*	*	*	*	*	*	*v	*v	*	*	*	*	*	*	*	*
*	*	*	*	*	*	*	*	*	*	*	*	*	*	*	*	*	*	*	*	*	*v	*v	*	*	*	*	*	*v	*v	*	*	*	*	*
*	*Xrep	*	*	*	*	*	*	*	*	*	*	*	*	*	*	*	*	*	*	*	*	*	*	*	*	*	*	*	*	*	*	*
=70	=70	=70	=70	=70	=70	=70	=70	=70	=70	=70	=70	=70	=70	=70	=70	=70	=70	=70	=70	=70	=70	=70	=70	=70	=70	=70	=70	=70	=70	=70	=70	=70
*	*	*	*	*	*	*	*	*	*	*	*	*	*	*	*	*	*	*	*	*	*	*	*	*	*^	*	*	*	*	*	*^	*
1ryy	8A\	.	1r;	.	.	1r;	.	.	1r;	.	.	1r;	.	.	8r	.	8r	.	8r	.	1r;	.	8A 8AA\	.	4ee/	4cc\	.	8cc 8a\	.	8aa\	.	8aa\	2ryy	.
.	8r	.	.	.	.	.	.	.	.	.	.	.	.	.	8e 8c\	.	8c/	.	8a/	f	.	.	8r	.	.	.	.	8r	.	8r	.	8r	.	.
.	.	.	.	.	.	.	.	.	.	.	.	.	.	.	.	.	.	.	.	.	.	.	.	f	.	.	.	.	f	.	f	.	.	f
.	8E/L	.	.	.	.	.	.	.	.	.	.	.	.	.	8e\L	.	8e/L	.	8e/L	.	.	.	8E\L	.	4r	2.ryy	.	8ee\L	.	8ee\L	.	8ee\L	.	.
.	8C/J	.	.	.	.	.	.	.	.	.	.	.	.	.	8c\J	.	8c/J	.	8c/J	.	.	.	8C\J	.	.	.	.	8cc\J	.	8cc\J	.	8cc\J	.	.
.	2AA;/	.	.	.	.	.	.	.	.	.	.	.	.	.	2A;/	.	2A;/	.	2A;/	.	.	.	2AA;/	.	2r;	.	.	2a;/	.	2a;\	.	2a;/	2a\	.
*	*	*	*	*	*	*	*	*	*	*	*	*	*	*	*	*	*	*	*	*	*	*	*	*	*v	*v	*	*	*	*	*	*v	*v	*
==	==	==	==	==	==	==	==	==	==	==	==	==	==	==	==	==	==	==	==	==	==	==	==	==	==	==	==	==	==	==	==	==
*-	*-	*-	*-	*-	*-	*-	*-	*-	*-	*-	*-	*-	*-	*-	*-	*-	*-	*-	*-	*-	*-	*-	*-	*-	*-	*-	*-	*-	*-	*-	*-	*-
!!!system-decoration: <(g1,s6)><({s7,s8}s9)>{g2}s14,s15
!!!RDF**kern: > = above
!!!RDF**kern: < = below
!!!RDF**kern: | = vertical stroke
!!!EED: Andrzej Borzym
!!!EST: 2021-04-26
!!!ENC: Tomasz Grochalski
!!!END: 2021-04-10
